!!!!SEGMENT: pl-wtm--r-1564--005_stefani-jozef--stabat-mater-aria-per-il-basso.krn
!!!cenid: 18xx:2886
!!!COM: Stefani, Józef
!!!COM-rismid: pe30024097
!!!CDT: 1800/04/16-1876/03/19
!!!CNT: Polish
!!!OPR: Stabat Mater
!!!OTL: Aria per il Basso
!!!OMV: 005
!!!PDT:
!!!AGN: Sacred
!!!SMS-siglum: PL-Wtm
!!!SMS-shelfmark: R 1564
!!!SMS-shelfwork: 001-005 M
!!!SMS-variant:
!!!SMS-altvar:
!!!NIFC-rismid: 1001115293
!!!OMD: Allegro maestoso.
!!!system-decoration: {(s1,s2)}s3,s4,s5,s6{(s7,s8)}s9{(s10,s11)}s12{(s13,s14,s15,s16)}s17{(s18,s19)}
**kern	**dynam	**kern	**kern	**text	**kern	**kern	**kern	**kern	**kern	**dynam	**kern	**dynam	**kern	**dynam	**kern	**kern	**kern	**dynam	**kern	**kern	**dynam	**kern	**dynam	**kern	**dynam	**kern	**dynam	**kern
*part19	*part19	*part18	*part17	*part17	*part16	*part15	*part14	*part13	*part12	*part12	*part11	*part11	*part10	*part10	*part9	*part8	*part7	*part7	*part6	*part5	*part5	*part4	*part4	*part3	*part3	*part2	*part2	*part1
*staff19	*	*staff18	*staff17	*staff17	*staff16	*staff15	*staff14	*staff13	*staff12	*	*staff11	*	*staff10	*	*staff9	*staff8	*staff7	*	*staff6	*staff5	*	*staff4	*	*staff3	*	*staff2	*	*staff1
*Iempty	*	*Icello	*Ivox	*	*Iempty	*Itenor	*Ialto	*Isoprn	*Iviola	*	*Ivioln	*	*Ivioln	*	*Itimp	*Itromt	*Itromt	*	*Itromp	*Ifagot	*	*Icor	*	*Iclars	*	*Ioboe	*	*Iflt
*I"Baſso	*	*I"Violoncelli	*I"Voce	*	*I"Baſsi	*I"Tenori	*I"Alti	*I"Soprani	*I"Viole	*	*I"Violini	*	*I"Violini	*	*I"Timpani	*I"Tromboni	*I"Tromboni	*	*I"Trombe	*I"Fagotti	*	*I"Corni in B.	*	*I"Clarinetti in C.	*	*I"Oboe	*	*I"Flauto
*I'B.	*	*I'Vc.	*I'Vc	*	*I'B.	*I'T.	*I'A.	*I'S.	*I'Va	*	*I'Vn II	*	*I'Vn I	*	*I'Timp.	*I'Tbn.	*I'Tr-ne	*	*I'Tr-ba in B♭	*I'Fag.	*	*I'C. in B	*	*I'Cl. in C	*	*I'Ob.	*	*I'Fl.
*clefF4	*	*clefF4	*clefF4	*	*clefF4	*clefGv2	*clefG2	*clefG2	*clefC3	*	*clefG2	*	*clefG2	*	*clefF4	*clefF4	*clefF4	*	*clefG2	*clefF4	*	*clefG2	*	*clefG2	*	*clefG2	*	*clefG2
*	*	*	*	*	*	*	*	*	*	*	*	*	*	*	*	*	*	*	*	*	*	*ITrd1c2	*	*	*	*	*	*
*k[b-e-]	*	*k[b-e-]	*k[b-e-]	*	*k[b-e-]	*k[b-e-]	*k[b-e-]	*k[b-e-]	*k[b-e-]	*	*k[b-e-]	*	*k[b-e-]	*	*k[b-e-]	*k[b-e-]	*k[b-e-]	*	*k[b-e-]	*k[b-e-]	*	*k[b-e-]	*	*k[b-e-]	*	*k[b-e-]	*	*k[b-e-]
*B-:	*	*B-:	*B-:	*	*B-:	*B-:	*B-:	*B-:	*B-:	*	*B-:	*	*B-:	*	*B-:	*B-:	*B-:	*	*B-:	*B-:	*	*B-:	*	*B-:	*	*B-:	*	*B-:
*M4/4	*	*M4/4	*M4/4	*	*M4/4	*M4/4	*M4/4	*M4/4	*M4/4	*	*M4/4	*	*M4/4	*	*M4/4	*M4/4	*M4/4	*	*M4/4	*M4/4	*	*M4/4	*	*M4/4	*	*M4/4	*	*M4/4
*met(c)	*	*met(c)	*met(c)	*	*met(c)	*met(c)	*met(c)	*met(c)	*met(c)	*	*met(c)	*	*met(c)	*	*met(c)	*met(c)	*met(c)	*	*met(c)	*met(c)	*	*met(c)	*	*met(c)	*	*met(c)	*	*met(c)
=1	=1	=1	=1	=1	=1	=1	=1	=1	=1	=1	=1	=1	=1	=1	=1	=1	=1	=1	=1	=1	=1	=1	=1	=1	=1	=1	=1	=1
*	*	*	*	*	*	*	*	*	*	*	*	*	*	*	*	*	*	*	*	*	*	*^	*	*	*	*	*	*
*2\right	*	*	*	*	*	*	*	*	*2\right	*	*2\right	*	*2\right	*	*	*	*	*	*	*2\right	*	*2\right	*2\right	*	*2\right	*	*2\right	*	*
!!LO:TX:a:t=P:problem:all\right:global
!!LO:TX:a:t=P:w źródle w części Aria per il Basso nie występuje partia Violoncelli, Baſsi, Tenori, Alti, Soprani, Timpani, 1 głos Tromboni, Trombe oraz Flauto:problem
!	!	!	!	!	!	!	!	!	!LO:TX:b:i:t=Col b&colon;	!	!LO:TX:b:i:t=Uniſ	!	!	!	!	!	!	!	!	!	!	!	!	!	!	!	!	!	!
4BB-/	f	1ryy	1r	.	1ryy	1ryy	1ryy	1ryy	4B-/	f	4B-/	f	4B-/	f	1ryy	1ryy	1r	.	1ryy	4BB-/	f	4B-/	4B-\	.	4B-/	f	4b-\	f	1ryy
8.r	.	.	.	.	.	.	.	.	8.r	.	8.r	.	8.r	.	.	.	.	.	.	8.r	.	8.r	8.rByy	.	8.r	.	8.r	.	.
(32BB-/LLL	.	.	.	.	.	.	.	.	(32B-/LLL	.	(32B-/LLL	.	(32B-/LLL	.	.	.	.	.	.	(32BB-/LLL	.	16B-/	16B-\	.	(32B-/LLL	.	(32b-\LLL	.	.
32C/JJJ	.	.	.	.	.	.	.	.	32c/JJJ	.	32c/JJJ	.	32c/JJJ	.	.	.	.	.	.	32C/JJJ	.	.	.	.	32c/JJJ	.	32cc\JJJ	.	.
8D/L)	.	.	.	.	.	.	.	.	8d/L)	.	8d/L)	.	8d/L)	.	.	.	.	.	.	8D\L)	.	4d/	4d\	.	8d/L)	.	8dd\L)	.	.
16r	.	.	.	.	.	.	.	.	16r	.	16r	.	16r	.	.	.	.	.	.	16r	.	.	.	.	16r	.	16r	.	.
(32D/LL	.	.	.	.	.	.	.	.	(32d/LL	.	(32d/LL	.	(32d/LL	.	.	.	.	.	.	(32D\LL	.	.	.	.	(32d/LL	.	(32dd\LL	.	.
32E-/JJJ	.	.	.	.	.	.	.	.	32e-/JJJ	.	32e-/JJJ	.	32e-/JJJ	.	.	.	.	.	.	32E-\JJJ	.	.	.	.	32e-/JJJ	.	32ee-\JJJ	.	.
8F\L)	.	.	.	.	.	.	.	.	8f\L)	.	8f/L)	.	8f/L)	.	.	.	.	.	.	8F\L)	.	4f/	4f\	.	8f/L)	.	8ff\L)	.	.
32r	.	.	.	.	.	.	.	.	32r	.	32r	.	32r	.	.	.	.	.	.	32r	.	.	.	.	32r	.	32r	.	.
(32F\LL	.	.	.	.	.	.	.	.	(32f\LL	.	(32f/LL	.	(32f/LL	.	.	.	.	.	.	(32F\LL	.	.	.	.	(32f/LL	.	(32ff\LL	.	.
32G\	.	.	.	.	.	.	.	.	32g\	.	32g/	.	32g/	.	.	.	.	.	.	32G\	.	.	.	.	32g/	.	32gg\	.	.
32A\JJJ	.	.	.	.	.	.	.	.	32a\JJJ	.	32a/JJJ	.	32a/JJJ	.	.	.	.	.	.	32A\JJJ	.	.	.	.	32a/JJJ	.	32aa\JJJ	.	.
=2	=2	=2	=2	=2	=2	=2	=2	=2	=2	=2	=2	=2	=2	=2	=2	=2	=2	=2	=2	=2	=2	=2	=2	=2	=2	=2	=2	=2	=2
*	*	*	*2\right	*	*	*	*	*	*	*	*	*	*	*	*	*	*2\right	*	*	*	*	*	*	*	*	*	*	*	*
4B-\)	.	1ryy	4r	.	1ryy	1ryy	1ryy	1ryy	4b-\)	.	4b-/)	.	4b-/)	.	1ryy	1ryy	4r	.	1ryy	4B-\)	.	4b-/	4b-\	.	4b-/)	.	4bb-\)	.	1ryy
!	!	!	!	!	!	!	!	!	!	!	!	!	!	!	!	!	!LO:TX:a:Bi:t=Solo	!	!	!	!	!	!	!	!	!	!	!	!
4r	.	.	2B-\	Pro	.	.	.	.	4r	.	4r	.	4r	.	.	.	2B-'\	.	.	4r	.	4r	4rByy	.	4r	.	4r	.	.
2r	.	.	.	.	.	.	.	.	2r	.	2r	.	2r	.	.	.	.	.	.	2r	.	2r	2rByy	.	2r	.	2r	.	.
.	.	.	4B-\	pec-	.	.	.	.	.	.	.	.	.	.	.	.	4B-'\	.	.	.	.	.	.	.	.	.	.	.	.
*	*	*	*	*	*	*	*	*	*	*	*	*	*	*	*	*	*	*	*	*	*	*v	*v	*	*	*	*	*	*
=3	=3	=3	=3	=3	=3	=3	=3	=3	=3	=3	=3	=3	=3	=3	=3	=3	=3	=3	=3	=3	=3	=3	=3	=3	=3	=3	=3	=3
1r	.	1ryy	4.d\	-ca-	1ryy	1ryy	1ryy	1ryy	1r	.	1r	.	1r	.	1ryy	1ryy	4.d'\	.	1ryy	1r	.	1r	.	1r	.	1r	.	1ryy
.	.	.	8B-\	-tis	.	.	.	.	.	.	.	.	.	.	.	.	8B-'\	.	.	.	.	.	.	.	.	.	.	.
.	.	.	(8F\L	su-	.	.	.	.	.	.	.	.	.	.	.	.	4F'\	.	.	.	.	.	.	.	.	.	.	.
.	.	.	8B-\J)	.	.	.	.	.	.	.	.	.	.	.	.	.	.	.	.	.	.	.	.	.	.	.	.	.
.	.	.	(8D\L	-ae	.	.	.	.	.	.	.	.	.	.	.	.	4D'\	.	.	.	.	.	.	.	.	.	.	.
.	.	.	8F\J)	.	.	.	.	.	.	.	.	.	.	.	.	.	.	.	.	.	.	.	.	.	.	.	.	.
!!LO:LB:g=original
=4	=4	=4	=4	=4	=4	=4	=4	=4	=4	=4	=4	=4	=4	=4	=4	=4	=4	=4	=4	=4	=4	=4	=4	=4	=4	=4	=4	=4
*^	*	*	*	*	*	*	*	*	*	*	*	*	*	*	*	*	*	*	*	*	*	*	*	*	*	*	*	*
!LO:TX:t=P:problem:mixed beam	!	!	!	!	!	!	!	!	!	!	!	!	!	!	!	!	!	!	!	!	!	!	!	!	!	!	!	!	!
8BB-/L	4BB-\	.	1ryy	4BB-/	gen-	1ryy	1ryy	1ryy	1ryy	8r	.	8r	.	2r	.	1ryy	1ryy	4.BB-/	.	1ryy	1r	.	1r	.	1r	.	2r	.	1ryy
8B-/	.	.	.	.	.	.	.	.	.	8F/L	.	(8d'/L	p	.	.	.	.	.	.	.	.	.	.	.	.	.	.	.	.
8B-/	4rGG	.	.	8BB-/	-tis	.	.	.	.	8F/	.	8d'/	.	.	.	.	.	.	.	.	.	.	.	.	.	.	.	.	.
8B-/J	.	.	.	8r	.	.	.	.	.	8F/J	.	8d'/J)	.	.	.	.	.	8r	.	.	.	.	.	.	.	.	.	.	.
!LO:TX:t=P:problem:mixed beam	!	!	!	!	!	!	!	!	!	!	!	!	!	!	!	!	!	!	!	!	!	!	!	!	!	!	!	!	!
!	!	!	!	!	!	!	!	!	!	!	!	!	!	!	!LO:HP:a	!	!	!	!	!	!	!	!	!	!	!	!	!	!
8BB-/L	4BB-\	.	.	4.G\	pro	.	.	.	.	8r	.	8r	.	(4.g/	p <	.	.	2r	.	.	.	.	.	.	.	.	(4.gg\	p <	.
8B-/	.	.	.	.	.	.	.	.	.	8G/L	.	(8e-'/L	.	.	.	.	.	.	.	.	.	.	.	.	.	.	.	.	.
8B-/	4rGG	.	.	.	.	.	.	.	.	8G/	.	8e-'/	.	.	.	.	.	.	.	.	.	.	.	.	.	.	.	.	.
8c/J	.	.	.	8A\	pec-	.	.	.	.	8G-X/J	.	8e-'/J)	.	8a/)	[[	.	.	.	.	.	.	.	.	.	.	.	8aa\)	[[	.
=5	=5	=5	=5	=5	=5	=5	=5	=5	=5	=5	=5	=5	=5	=5	=5	=5	=5	=5	=5	=5	=5	=5	=5	=5	=5	=5	=5	=5	=5
!LO:TX:t=P:problem:mixed beam	!	!	!	!	!	!	!	!	!	!	!	!	!	!	!	!	!	!	!	!	!	!	!	!	!	!	!	!	!
!	!	!	!	!	!	!	!	!	!	!	!	!	!	!	!LO:HP:a	!	!	!	!	!	!	!	!	!	!	!	!	!	!
8BB-/L	4BB-\	.	1ryy	4B-\	-ca-	1ryy	1ryy	1ryy	1ryy	8r	.	8r	.	(4b-/	>	1ryy	1ryy	1r	.	1ryy	1r	.	1r	.	1r	.	(4bb-\	>	1ryy
8B-/	.	.	.	.	.	.	.	.	.	8F/L	.	(8d'/L	.	.	.	.	.	.	.	.	.	.	.	.	.	.	.	.	.
8B-/	4rGG	.	.	8F\	-tis	.	.	.	.	8F/	.	8d'/	.	8f/)	]	.	.	.	.	.	.	.	.	.	.	.	8ff\)	]	.
8B-/J	.	.	.	8r	.	.	.	.	.	8F/J	.	8d'/J)	.	8r	.	.	.	.	.	.	.	.	.	.	.	.	8r	.	.
!LO:TX:t=P:problem:mixed beam	!	!	!	!	!	!	!	!	!	!	!	!	!	!	!	!	!	!	!	!	!	!	!	!	!	!	!	!	!
!	!	!	!	!	!	!	!	!	!	!	!	!	!	!	!LO:HP:a	!	!	!	!	!	!	!	!	!	!	!	!	!	!
8BB-/L	4BB-\	.	.	4.G\	pro	.	.	.	.	8r	.	8r	.	(4.g/	<	.	.	.	.	.	.	.	.	.	.	.	(4.gg\	<	.
8B-/	.	.	.	.	.	.	.	.	.	8G/L	.	(8e-'/L	.	.	.	.	.	.	.	.	.	.	.	.	.	.	.	.	.
8B-/	4rGG	.	.	.	.	.	.	.	.	8G/	.	8e-'/	.	.	.	.	.	.	.	.	.	.	.	.	.	.	.	.	.
8c/J	.	.	.	8A\	pec-	.	.	.	.	8G-X/J	.	8e-'/J)	.	8a/)	[[	.	.	.	.	.	.	.	.	.	.	.	8aa\)	[[	.
=6	=6	=6	=6	=6	=6	=6	=6	=6	=6	=6	=6	=6	=6	=6	=6	=6	=6	=6	=6	=6	=6	=6	=6	=6	=6	=6	=6	=6	=6
!LO:TX:t=P:problem:mixed beam	!	!	!	!	!	!	!	!	!	!	!	!	!	!	!	!	!	!	!	!	!	!	!	!	!	!	!	!	!
!	!	!	!	!	!	!	!	!	!	!	!	!	!	!	!LO:HP:a	!	!	!	!	!	!	!	!	!	!	!	!	!	!
8BB-/L	4BB-\	.	1ryy	([8c\L	-ca-	1ryy	1ryy	1ryy	1ryy	8r	.	8r	.	((8cc/L	>	1ryy	1ryy	1r	.	1ryy	1r	.	1r	.	1r	.	(8ccc\L	>	1ryy
8B-/	.	.	.	32c\LL]	.	.	.	.	.	8F/L	.	(8d'/L	.	32cc/LL	.	.	.	.	.	.	.	.	.	.	.	.	32ccc\LL	.	.
.	.	.	.	32B-\	.	.	.	.	.	.	.	.	.	32b-/)	.	.	.	.	.	.	.	.	.	.	.	.	32bb-\	.	.
.	.	.	.	32A\	.	.	.	.	.	.	.	.	.	32a/	.	.	.	.	.	.	.	.	.	.	.	.	32aa\	.	.
.	.	.	.	32B-\JJJ)	.	.	.	.	.	.	.	.	.	32b-/JJJ	.	.	.	.	.	.	.	.	.	.	.	.	32bb-\JJJ	]	.
8B-/	4rGG	.	.	8F\	-tis	.	.	.	.	8F/	.	8d'/	.	8f/)	]	.	.	.	.	.	.	.	.	.	.	.	8ff\)	.	.
8B-/J	.	.	.	8r	.	.	.	.	.	8F/J	.	8d'/J)	.	8r	.	.	.	.	.	.	.	.	.	.	.	.	8r	.	.
8E-\	2rEEyy	.	.	(8G\L	su-	.	.	.	.	8r	.	8r	.	(4.g/	.	.	.	.	.	.	.	.	.	.	.	.	2r	.	.
8r	.	.	.	32G\LL	.	.	.	.	.	8G 8E-/	.	8c/	.	.	.	.	.	.	.	.	.	.	.	.	.	.	.	.	.
.	.	.	.	32A\	.	.	.	.	.	.	.	.	.	.	.	.	.	.	.	.	.	.	.	.	.	.	.	.	.
.	.	.	.	32G\)	.	.	.	.	.	.	.	.	.	.	.	.	.	.	.	.	.	.	.	.	.	.	.	.	.
.	.	.	.	32F#X\JJJ	.	.	.	.	.	.	.	.	.	.	.	.	.	.	.	.	.	.	.	.	.	.	.	.	.
8C/	.	.	.	(8G\L	-ae	.	.	.	.	8r	.	8r	.	.	.	.	.	.	.	.	.	.	.	.	.	.	.	.	.
8r	.	.	.	8c\J)	.	.	.	.	.	8G/	.	8e- 8c/	.	8cc\)	.	.	.	.	.	.	.	.	.	.	.	.	.	.	.
*v	*v	*	*	*	*	*	*	*	*	*	*	*	*	*	*	*	*	*	*	*	*	*	*	*	*	*	*	*	*
=7	=7	=7	=7	=7	=7	=7	=7	=7	=7	=7	=7	=7	=7	=7	=7	=7	=7	=7	=7	=7	=7	=7	=7	=7	=7	=7	=7	=7
4F\	.	1ryy	(8B-\L	gen-	1ryy	1ryy	1ryy	1ryy	4r	.	4r	.	(8b-/L	.	1ryy	1ryy	1r	.	1ryy	1r	.	1r	.	1r	.	1r	.	1ryy
.	.	.	8F\J	.	.	.	.	.	.	.	.	.	8f/J	.	.	.	.	.	.	.	.	.	.	.	.	.	.	.
4r	.	.	(2d\)	.	.	.	.	.	4F/	.	4d 4B-/	.	4dd\)	.	.	.	.	.	.	.	.	.	.	.	.	.	.	.
4FF/	.	.	.	.	.	.	.	.	4r	.	4r	.	4r	.	.	.	.	.	.	.	.	.	.	.	.	.	.	.
4r	.	.	4c\)	.	.	.	.	.	4F/	.	4e- 4c/	.	4a/	.	.	.	.	.	.	.	.	.	.	.	.	.	.	.
!!LO:PB:g=original
=8	=8	=8	=8	=8	=8	=8	=8	=8	=8	=8	=8	=8	=8	=8	=8	=8	=8	=8	=8	=8	=8	=8	=8	=8	=8	=8	=8	=8
8BB-/	.	1ryy	4B-\	-tis	1ryy	1ryy	1ryy	1ryy	8B-/	.	8dL 8B-/	.	8b-'\L	.	1ryy	1ryy	1r	.	1ryy	8r	.	1r	.	8r	.	1r	.	1ryy
8d\L	f	.	.	.	.	.	.	.	8f\L	f	8dd'/	.	8ff'\	f	.	.	.	.	.	8fL 8d'\	f	.	.	8ffL 8dd'\	f	.	.	.
8c\	.	.	4r	.	.	.	.	.	8e-\	.	8cc'/	.	8ee-'\	.	.	.	.	.	.	8e- 8c'\	.	.	.	8ee- 8cc'\	.	.	.	.
8B-\J	.	.	.	.	.	.	.	.	8d\J	.	8b-'/J	.	8dd'\J	.	.	.	.	.	.	8dJ 8B-'\	.	.	.	8ddJ 8b-'\	.	.	.	.
8A\L	.	.	2r	.	.	.	.	.	8c/L	.	8a'/L	.	8cc'/L	.	.	.	.	.	.	8cL 8A'\	.	.	.	8ccL 8a'/	.	.	.	.
8G\	.	.	.	.	.	.	.	.	8B-/	.	8g'/	.	8b-'/	.	.	.	.	.	.	8B- 8G'\	.	.	.	8b- 8g'/	.	.	.	.
8F\	.	.	.	.	.	.	.	.	8A/	.	8f'/	.	8a'/	.	.	.	.	.	.	8A 8F'\	.	.	.	8a 8f'/	.	.	.	.
8E-\J	.	.	.	.	.	.	.	.	8G/J	.	8e-'/J	.	8g'/J	.	.	.	.	.	.	8GJ 8E-'\	.	.	.	8gJ 8e-'/	.	.	.	.
=9	=9	=9	=9	=9	=9	=9	=9	=9	=9	=9	=9	=9	=9	=9	=9	=9	=9	=9	=9	=9	=9	=9	=9	=9	=9	=9	=9	=9
*	*	*	*	*	*	*	*	*	*	*	*	*	*	*	*	*	*	*	*	*	*	*	*	*^	*	*	*	*
8D\	.	1ryy	1r	.	1ryy	1ryy	1ryy	1ryy	8F/	.	8d/	.	8f'/L	.	1ryy	1ryy	8D\	.	1ryy	8F 8D\	.	8dd 8b-\	.	8f/L	8d\	.	8r	.	1ryy
8r	.	.	.	.	.	.	.	.	8r	.	8r	.	(8b-/	.	.	.	8r	.	.	8r	.	8r	.	8b-/	8rc	.	8bb-'\L	.	.
8E-\	.	.	.	.	.	.	.	.	8A/	.	8c/	.	8g/	.	.	.	8E-\	.	.	8G 8E-\	.	8ee- 8cc\	.	8g/	8c\	.	(8gg\	.	.
8r	.	.	.	.	.	.	.	.	8r	.	8r	.	8cc/J)	.	.	.	8r	.	.	8r	.	8r	.	8cc/J	8rc	.	8ccc\J)	.	.
8F\	.	.	.	.	.	.	.	.	8B-`/L	.	4d/	.	8b-`/L	.	.	.	8F\	.	.	8F\	.	4dd 4b-\	.	8b-`/L	4d\	.	8bb-\L	.	.
8r	.	.	.	.	.	.	.	.	(8d/	.	.	.	(8f/	.	.	.	8r	.	.	8r	.	.	.	(8f/	.	.	(8ff`\	.	.
4FF/	.	.	.	.	.	.	.	.	8c#X/	.	(8en/L	.	8a/	.	.	.	4FF/	.	.	4F 4FF/	.	8r	.	8g/	8en\L	.	8gg\	.	.
.	.	.	.	.	.	.	.	.	8cn/J)	.	8e-X/J)	.	8b-/J	.	.	.	.	.	.	.	.	8cc 8f/	.	8a/J	8e-X\J	.	8aa\J	.	.
=10	=10	=10	=10	=10	=10	=10	=10	=10	=10	=10	=10	=10	=10	=10	=10	=10	=10	=10	=10	=10	=10	=10	=10	=10	=10	=10	=10	=10	=10
8BB-/L	fp	1ryy	2r	.	1ryy	1ryy	1ryy	1ryy	4B-/	.	4d/	.	4b-/)	.	1ryy	1ryy	4BB-/	.	1ryy	4F 4BB-/	.	4b- 4d/	.	4b-/)	4d\	.	4bb-\)	.	1ryy
8BB-/	.	.	.	.	.	.	.	.	.	.	.	.	.	.	.	.	.	.	.	.	.	.	.	.	.	.	.	.	.
8BB-/	.	.	.	.	.	.	.	.	4r	.	4r	.	4r	.	.	.	4r	.	.	4r	.	4r	.	4r	4rcyy	.	4r	.	.
8BB-/J	.	.	.	.	.	.	.	.	.	.	.	.	.	.	.	.	.	.	.	.	.	.	.	.	.	.	.	.	.
*	*	*	*	*	*	*	*	*	*	*	*	*	*	*	*	*	*	*	*	*clefC4	*	*	*	*	*	*	*	*	*
!LO:TX:t=P:problem:mixed beam	!	!	!	!	!	!	!	!	!	!	!	!	!	!	!	!	!	!	!	!	!	!	!	!	!	!	!	!	!
8BB-/L	.	.	4.G\	Vi-	.	.	.	.	8en\L	.	(8gL 8c'/	p	2r	.	.	.	2r	.	.	(2g (2B-\	p	(2eeX (2cc\	p	2r	2rcyy	.	2r	.	.
8B-/	.	.	.	.	.	.	.	.	8e\	.	8g 8c'/	.	.	.	.	.	.	.	.	.	.	.	.	.	.	.	.	.	.
8B-/	.	.	.	.	.	.	.	.	8e\	.	8g 8c'/	.	.	.	.	.	.	.	.	.	.	.	.	.	.	.	.	.	.
8B-/J	.	.	(16An\LL	-dit	.	.	.	.	8e\J	.	8gJ 8c'/)	.	.	.	.	.	.	.	.	.	.	.	.	.	.	.	.	.	.
.	.	.	16B-\JJ)	.	.	.	.	.	.	.	.	.	.	.	.	.	.	.	.	.	.	.	.	.	.	.	.	.	.
*	*	*	*	*	*	*	*	*	*	*	*	*	*	*	*	*	*	*	*	*	*	*	*	*v	*v	*	*	*	*
=11	=11	=11	=11	=11	=11	=11	=11	=11	=11	=11	=11	=11	=11	=11	=11	=11	=11	=11	=11	=11	=11	=11	=11	=11	=11	=11	=11	=11
*	*	*	*	*	*	*	*	*	*	*	*	*	*	*	*	*	*	*	*	*^	*	*	*	*	*	*	*	*
!LO:TX:t=P:problem:mixed beam	!	!	!	!	!	!	!	!	!	!	!	!	!	!	!	!	!	!	!	!	!	!	!	!	!	!	!	!	!
8AA/L	.	1ryy	4c\	Je-	1ryy	1ryy	1ryy	1ryy	8f\L	.	8fL 8c/	.	8r	.	1ryy	1ryy	1r	.	1ryy	4f/))	4A\	.	4ff 4cc\))	.	1r	.	1r	.	1ryy
.	.	.	.	.	.	.	.	.	.	.	.	.	(32qqgg/LLL	.	.	.	.	.	.	.	.	.	.	.	.	.	.	.	.
.	.	.	.	.	.	.	.	.	.	.	.	.	32qqff/	.	.	.	.	.	.	.	.	.	.	.	.	.	.	.	.
.	.	.	.	.	.	.	.	.	.	.	.	.	32qqeen/JJJ	.	.	.	.	.	.	.	.	.	.	.	.	.	.	.	.
8A/	.	.	.	.	.	.	.	.	8f\	.	8f 8c/	.	8ff\L)	.	.	.	.	.	.	.	.	.	.	.	.	.	.	.	.
8A/	.	.	8c\	-sum	.	.	.	.	8f\	.	8f 8c/	.	8ccc\J	.	.	.	.	.	.	4r	4rBByy	.	4r	.	.	.	.	.	.
8A/J	.	.	8r	.	.	.	.	.	8f\J	.	8fJ 8c/	.	8r	.	.	.	.	.	.	.	.	.	.	.	.	.	.	.	.
!LO:TX:t=P:problem:mixed beam	!	!	!	!	!	!	!	!	!	!	!	!	!	!	!	!	!	!	!	!	!	!	!	!	!	!	!	!	!
8AA-X/L	.	.	4.F\	in	.	.	.	.	8B-/L	.	8fL 8d/	.	2r	.	.	.	.	.	.	2d/	[2A-X\	.	(2ff 2b-\	.	.	.	.	.	.
8A-X/	.	.	.	.	.	.	.	.	8B-/	.	8f 8d/	.	.	.	.	.	.	.	.	.	.	.	.	.	.	.	.	.	.
8A-/	.	.	.	.	.	.	.	.	8B-/	.	8f 8d/	.	.	.	.	.	.	.	.	.	.	.	.	.	.	.	.	.	.
8A-/J	.	.	(16G\LL	tor-	.	.	.	.	8B-/J	.	8fJ 8d/	.	.	.	.	.	.	.	.	.	.	.	.	.	.	.	.	.	.
.	.	.	16A-X\JJ)	.	.	.	.	.	.	.	.	.	.	.	.	.	.	.	.	.	.	.	.	.	.	.	.	.	.
!!LO:LB:g=original
=12	=12	=12	=12	=12	=12	=12	=12	=12	=12	=12	=12	=12	=12	=12	=12	=12	=12	=12	=12	=12	=12	=12	=12	=12	=12	=12	=12	=12	=12
*	*	*	*	*	*	*	*	*	*	*	*	*	*	*	*	*	*	*	*	*	*	*	*^	*	*	*	*	*	*
!LO:TX:t=P:problem:mixed beam	!	!	!	!	!	!	!	!	!	!	!	!	!	!	!	!	!	!	!	!	!	!	!	!	!	!	!	!	!	!
8GG/L	.	1ryy	4B-\	-men-	1ryy	1ryy	1ryy	1ryy	8B-/L	.	8e-/L	.	8r	.	1ryy	1ryy	1r	.	1ryy	4e- 4G\	2rBB]	.	4ee-/)	4b-\	.	1r	.	1r	.	1ryy
.	.	.	.	.	.	.	.	.	.	.	.	.	32qqff/LLL	.	.	.	.	.	.	.	.	.	.	.	.	.	.	.	.	.
.	.	.	.	.	.	.	.	.	.	.	.	.	32qqee-/	.	.	.	.	.	.	.	.	.	.	.	.	.	.	.	.	.
!	!	!	!	!	!	!	!	!	!	!	!	!	!LO:TX:a:t=Violini	!	!	!	!	!	!	!	!	!	!	!	!	!	!	!	!	!
.	.	.	.	.	.	.	.	.	.	.	.	.	32qqdd/JJJ	.	.	.	.	.	.	.	.	.	.	.	.	.	.	.	.	.
8G/	.	.	.	.	.	.	.	.	8B-/	.	8e-/	.	8ee-\L	.	.	.	.	.	.	.	.	.	.	.	.	.	.	.	.	.
8G/	.	.	8B-\	-tis	.	.	.	.	8B-/	.	8e-/	.	8bb-\J	.	.	.	.	.	.	4r	.	.	4r	4rByy	.	.	.	.	.	.
8G/J	.	.	8r	.	.	.	.	.	8B-/J	.	8e-/J	.	8r	.	.	.	.	.	.	.	.	.	.	.	.	.	.	.	.	.
!LO:TX:t=P:problem:mixed beam	!	!	!	!	!	!	!	!	!	!	!	!	!	!	!	!	!	!	!	!	!	!	!	!	!	!	!	!	!	!
8GG-X/L	.	.	4.E-\	in	.	.	.	.	8A-X/L	.	8c/L	.	2r	.	.	.	.	.	.	(2e-/	(2G-X\	.	(2cc/	[2a-X\	.	.	.	.	.	.
8G-X/	.	.	.	.	.	.	.	.	8A-/	.	8c/	.	.	.	.	.	.	.	.	.	.	.	.	.	.	.	.	.	.	.
8G-/	.	.	.	.	.	.	.	.	8A-/	.	8c/	.	.	.	.	.	.	.	.	.	.	.	.	.	.	.	.	.	.	.
8G-/J	.	.	(16F\LL	tor-	.	.	.	.	8A-/J	.	8c/J	.	.	.	.	.	.	.	.	.	.	.	.	.	.	.	.	.	.	.
.	.	.	16G-X\JJ)	.	.	.	.	.	.	.	.	.	.	.	.	.	.	.	.	.	.	.	.	.	.	.	.	.	.	.
=13	=13	=13	=13	=13	=13	=13	=13	=13	=13	=13	=13	=13	=13	=13	=13	=13	=13	=13	=13	=13	=13	=13	=13	=13	=13	=13	=13	=13	=13	=13
*	*	*	*	*	*	*	*	*	*	*	*	*	*	*	*	*	*	*	*	*	*	*	*	*	*	*^	*	*	*	*
8F\L	.	1ryy	4A\	-men-	1ryy	1ryy	1ryy	1ryy	8A-X/L	.	8d-X/L	.	8r	.	1ryy	1ryy	2r	.	1ryy	4d-X/)	4F\)	.	4dd-X/)	4a-X\]	.	2r	2rcyy	.	2r	.	1ryy
.	.	.	.	.	.	.	.	.	.	.	.	.	(32qqee-X/LLL	.	.	.	.	.	.	.	.	.	.	.	.	.	.	.	.	.	.
.	.	.	.	.	.	.	.	.	.	.	.	.	32qqdd-X/	.	.	.	.	.	.	.	.	.	.	.	.	.	.	.	.	.	.
.	.	.	.	.	.	.	.	.	.	.	.	.	32qqcc/JJJ)	.	.	.	.	.	.	.	.	.	.	.	.	.	.	.	.	.	.
8F\	.	.	.	.	.	.	.	.	8A-/	.	8d-/J	.	8dd-X\	.	.	.	.	.	.	.	.	.	.	.	.	.	.	.	.	.	.
8C\	.	.	4e-\	-tis	.	.	.	.	8A-/	.	8e-/L	.	8r	.	.	.	.	.	.	4r	4rBByy	.	4r	4rByy	.	.	.	.	.	.	.
.	.	.	.	.	.	.	.	.	.	.	.	.	(32qqff/LLL	<	.	.	.	.	.	.	.	.	.	.	.	.	.	.	.	.	.
.	.	.	.	.	.	.	.	.	.	.	.	.	32qqee-/	.	.	.	.	.	.	.	.	.	.	.	.	.	.	.	.	.	.
.	.	.	.	.	.	.	.	.	.	.	.	.	32qqddn/JJJ)	.	.	.	.	.	.	.	.	.	.	.	.	.	.	.	.	.	.
8C\J	.	.	.	.	.	.	.	.	8A-/J	.	8e-/J	.	8ee-\	.	.	.	.	.	.	.	.	.	.	.	.	.	.	.	.	.	.
*	*	*	*	*	*	*	*	*	*	*	*	*	*	*	*	*	*	*	*	*clefF4	*	*	*	*	*	*	*	*	*	*	*
!	!	!	!	!	!	!	!	!	!	!	!	!	!	!	!	!	!LO:TX:a:Bi:t=Trombone	!	!	!	!	!	!	!	!	!	!	!	!	!	!
!	!	!	!	!	!	!	!	!	!	!	!	!	!	!	!	!	!LO:TX:t=P:problem:w tym systemie partia puzonu zapisana dopiero pod głosem solowym	!	!	!	!	!	!	!	!	!	!	!	!	!	!
8D-X\L	<	.	4f\	in	.	.	.	.	16A-/LL	<	16f/LL	<	16ff\LL	.	.	.	(2D-X\	<[	.	2F/	2D-X\	<	2bX/	2f\	<	4r	4rcyy	.	4r	.	.
.	.	.	.	.	.	.	.	.	16A-/	.	16f/	.	16ff\	.	.	.	.	.	.	.	.	.	.	.	.	.	.	.	.	.	.
8D-\	.	.	.	.	.	.	.	.	16A-/	.	16f/	.	16ff\	.	.	.	.	.	.	.	.	.	.	.	.	.	.	.	.	.	.
.	.	.	.	.	.	.	.	.	16A-/JJ	.	16f/	.	16ff\JJ	.	.	.	.	.	.	.	.	.	.	.	.	.	.	.	.	.	.
8D-\	.	.	4Bn\	tor-	.	.	.	.	16G/LL	.	16f/	.	16bn\LL	.	.	.	.	.	.	.	.	.	.	.	.	4bn/	4f\	<	4ff\	<[	.
.	.	.	.	.	.	.	.	.	16G/	.	16f/	.	16b\	.	.	.	.	.	.	.	.	.	.	.	.	.	.	.	.	.	.
8D-\J	[	.	.	.	.	.	.	.	16G/	[	16f/	.	16b\	.	.	.	.	.	.	.	.	.	.	.	.	.	.	.	.	.	.
.	.	.	.	.	.	.	.	.	16G/JJ	.	16f/JJ	[	16b\JJ	[[	.	.	.	.	.	.	.	.	.	.	.	.	.	.	.	.	.
*	*	*	*	*	*	*	*	*	*	*	*	*	*	*	*	*	*	*	*	*v	*v	*	*	*	*	*	*	*	*	*	*
*	*	*	*	*	*	*	*	*	*	*	*	*	*	*	*	*	*	*	*	*	*	*v	*v	*	*	*	*	*	*	*
=14	=14	=14	=14	=14	=14	=14	=14	=14	=14	=14	=14	=14	=14	=14	=14	=14	=14	=14	=14	=14	=14	=14	=14	=14	=14	=14	=14	=14	=14
8C/L	f	1ryy	4c\	-men-	1ryy	1ryy	1ryy	1ryy	(16c\LL	f	8enL 8G/	f	8cc'\L	f	1ryy	1ryy	8C/L)	f	1ryy	8GL 8C\	[ f	8ccL 8eX'/	[ f	1cc	1g	[ f	1een	f	1ryy
.	.	.	.	.	.	.	.	.	16Bn\	.	.	.	.	.	.	.	.	.	.	.	.	.	.	.	.	.	.	.	.
8C/	.	.	.	.	.	.	.	.	16c\	.	8g 8G/	.	8een 8cc'\	.	.	.	8C/	.	.	8G 8C\	.	8cc 8e'/	.	.	.	.	.	.	.
.	.	.	.	.	.	.	.	.	16d-X\JJ)	.	.	.	.	.	.	.	.	.	.	.	.	.	.	.	.	.	.	.	.
8C/J	.	.	8D/	-tis	.	.	.	.	(16c\LL	.	8ccJ 8e/	.	8ggJ 8cc 8en'\	.	.	.	8C/J	.	.	8GJ 8C\	.	8ccJ 8e'/	.	.	.	.	.	.	.
.	.	.	.	.	.	.	.	.	16B\	.	.	.	.	.	.	.	.	.	.	.	.	.	.	.	.	.	.	.	.
8r	.	.	8r	.	.	.	.	.	16c\	.	8r	.	8r	.	.	.	8r	.	.	8r	.	8r	.	.	.	.	.	.	.
.	.	.	.	.	.	.	.	.	16d-\JJ)	.	.	.	.	.	.	.	.	.	.	.	.	.	.	.	.	.	.	.	.
8C/L	.	.	4r	.	.	.	.	.	(16c\LL	.	8eL 8G/	.	8ccL 8en'\	.	.	.	8C/L	.	.	8GL 8C\	.	8ccL 8e'/	.	.	.	.	.	.	.
.	.	.	.	.	.	.	.	.	16B\	.	.	.	.	.	.	.	.	.	.	.	.	.	.	.	.	.	.	.	.
8C/	.	.	.	.	.	.	.	.	16c\	.	8g 8G/	.	8ee 8cc'\	.	.	.	8C/	.	.	8G 8C\	.	8cc 8e'/	.	.	.	.	.	.	.
.	.	.	.	.	.	.	.	.	16d-\JJ)	.	.	.	.	.	.	.	.	.	.	.	.	.	.	.	.	.	.	.	.
8C/J	.	.	8.c\	et	.	.	.	.	(16c\LL	.	8ccJ 8e/	.	8ggJ 8cc 8e'\	.	.	.	8C/J	.	.	8GJ 8C\	.	8ccJ 8e'/	.	.	.	.	.	.	.
.	.	.	.	.	.	.	.	.	16B\	.	.	.	.	.	.	.	.	.	.	.	.	.	.	.	.	.	.	.	.
8r	.	.	.	.	.	.	.	.	16c\	.	8r	.	8r	.	.	.	8r	.	.	8r	.	8r	.	.	.	.	.	.	.
.	.	.	16c\	fla-	.	.	.	.	16d-\JJ)	.	.	.	.	.	.	.	.	.	.	.	.	.	.	.	.	.	.	.	.
=15	=15	=15	=15	=15	=15	=15	=15	=15	=15	=15	=15	=15	=15	=15	=15	=15	=15	=15	=15	=15	=15	=15	=15	=15	=15	=15	=15	=15	=15
8C/L	.	1ryy	4.A-X\	-gel-	1ryy	1ryy	1ryy	1ryy	(16c\LL	.	8a-X\L	.	8ccL 8f'\	.	1ryy	1ryy	8C/L	.	1ryy	8A-XL 8C\	.	8ccL 8f/	.	1cc	1a-X	.	1ff	.	1ryy
.	.	.	.	.	.	.	.	.	16Bn\	.	.	.	.	.	.	.	.	.	.	.	.	.	.	.	.	.	.	.	.
8C/	.	.	.	.	.	.	.	.	16c\	.	8cc 8a-\	.	8ff 8cc 8f'\	.	.	.	8C/	.	.	8A- 8C\	.	8cc 8f/	.	.	.	.	.	.	.
.	.	.	.	.	.	.	.	.	16d-X\JJ)	.	.	.	.	.	.	.	.	.	.	.	.	.	.	.	.	.	.	.	.
8C/J	.	.	.	.	.	.	.	.	(16c\LL	.	8ffJ 8cc 8a-\	.	8aa-XJ 8cc 8f'\	.	.	.	8C/J	.	.	8A-J 8C\	.	8ccJ 8f/	.	.	.	.	.	.	.
.	.	.	.	.	.	.	.	.	16B\	.	.	.	.	.	.	.	.	.	.	.	.	.	.	.	.	.	.	.	.
8r	.	.	8A-\	-lis	.	.	.	.	16c\	.	8r	.	8r	.	.	.	8r	.	.	8r	.	8r	.	.	.	.	.	.	.
.	.	.	.	.	.	.	.	.	16d-\JJ)	.	.	.	.	.	.	.	.	.	.	.	.	.	.	.	.	.	.	.	.
8C/L	.	.	4F\	sub-	.	.	.	.	(16c\LL	.	8a-\L	.	8ccL 8f'\	.	.	.	8C/L	.	.	8A-L 8C\	.	8ccL 8f/	.	.	.	.	.	.	.
.	.	.	.	.	.	.	.	.	16B\	.	.	.	.	.	.	.	.	.	.	.	.	.	.	.	.	.	.	.	.
8C/	.	.	.	.	.	.	.	.	16c\	.	8cc 8a-\	.	8ff 8cc 8f'\	.	.	.	8C/	.	.	8A- 8C\	.	8cc 8f/	.	.	.	.	.	.	.
.	.	.	.	.	.	.	.	.	16d-\JJ)	.	.	.	.	.	.	.	.	.	.	.	.	.	.	.	.	.	.	.	.
8C/J	.	.	4A-\	-di-	.	.	.	.	(16c\LL	.	8ffJ 8cc 8a-\	.	8aa-J 8cc 8f'\	.	.	.	8C/J	.	.	8A-J 8C\	.	8ccJ 8f/	.	.	.	.	.	.	.
.	.	.	.	.	.	.	.	.	16B\	.	.	.	.	.	.	.	.	.	.	.	.	.	.	.	.	.	.	.	.
8r	.	.	.	.	.	.	.	.	16c\	.	8r	.	8r	.	.	.	8r	.	.	8r	.	8r	.	.	.	.	.	.	.
.	.	.	.	.	.	.	.	.	16d-\JJ)	.	.	.	.	.	.	.	.	.	.	.	.	.	.	.	.	.	.	.	.
!!LO:PB:g=original
=16	=16	=16	=16	=16	=16	=16	=16	=16	=16	=16	=16	=16	=16	=16	=16	=16	=16	=16	=16	=16	=16	=16	=16	=16	=16	=16	=16	=16	=16
!	!	!	!	!	!	!	!	!	!	!	!LO:TX:a:i:t=Violini	!	!	!	!	!	!LO:TX:a:Bi:t=Trombone	!	!	!	!	!	!	!	!	!	!	!	!
8C/L	.	1ryy	4C/	-tum	1ryy	1ryy	1ryy	1ryy	(16c\LL	.	8enL 8G/	.	8ccL 8en'\	.	1ryy	1ryy	8C/L	.	1ryy	8GL 8C\	.	8ccL 8eX/	.	1cc	1g	.	(1een	.	1ryy
.	.	.	.	.	.	.	.	.	16Bn\	.	.	.	.	.	.	.	.	.	.	.	.	.	.	.	.	.	.	.	.
8C/	.	.	.	.	.	.	.	.	16c\	.	8g 8G/	.	8een 8cc'\	.	.	.	8C/	.	.	8G 8C\	.	8cc 8e/	.	.	.	.	.	.	.
.	.	.	.	.	.	.	.	.	16d-X\JJ)	.	.	.	.	.	.	.	.	.	.	.	.	.	.	.	.	.	.	.	.
8C/J	.	.	4r	.	.	.	.	.	(16c\LL	.	8ccJ 8e/	.	8ggJ 8cc 8e'\	.	.	.	8C/J	.	.	8GJ 8C\	.	8ccJ 8e/	.	.	.	.	.	.	.
.	.	.	.	.	.	.	.	.	16B\	.	.	.	.	.	.	.	.	.	.	.	.	.	.	.	.	.	.	.	.
8r	.	.	.	.	.	.	.	.	16c\	.	8r	.	8r	.	.	.	8r	.	.	8r	.	8r	.	.	.	.	.	.	.
.	.	.	.	.	.	.	.	.	16d-\JJ)	.	.	.	.	.	.	.	.	.	.	.	.	.	.	.	.	.	.	.	.
8C/L	.	.	4r	.	.	.	.	.	(16c\LL	.	8eL 8G/	.	8ccL 8e'\	.	.	.	8C/L	.	.	8GL 8C\	.	8ccL 8e/	.	.	.	.	.	.	.
.	.	.	.	.	.	.	.	.	16B\	.	.	.	.	.	.	.	.	.	.	.	.	.	.	.	.	.	.	.	.
8C/	.	.	.	.	.	.	.	.	16c\	.	8g 8G/	.	8een 8cc'\	.	.	.	8C/	.	.	8G 8C\	.	8cc 8e/	.	.	.	.	.	.	.
.	.	.	.	.	.	.	.	.	16d-\JJ)	.	.	.	.	.	.	.	.	.	.	.	.	.	.	.	.	.	.	.	.
8C/J	.	.	8.c\	et	.	.	.	.	(16c\LL	.	8ccJ 8e/	.	8ggJ 8cc 8e'\	.	.	.	8C/J	.	.	8GJ 8C\	.	8ccJ 8e/	.	.	.	.	.	.	.
.	.	.	.	.	.	.	.	.	16B\	.	.	.	.	.	.	.	.	.	.	.	.	.	.	.	.	.	.	.	.
8r	.	.	.	.	.	.	.	.	16c\	.	8r	.	8r	.	.	.	8r	.	.	8r	.	8r	.	.	.	.	.	.	.
.	.	.	16c\	fla-	.	.	.	.	16d-\JJ)	.	.	.	.	.	.	.	.	.	.	.	.	.	.	.	.	.	.	.	.
=17	=17	=17	=17	=17	=17	=17	=17	=17	=17	=17	=17	=17	=17	=17	=17	=17	=17	=17	=17	=17	=17	=17	=17	=17	=17	=17	=17	=17	=17
8C/L	.	1ryy	4.A-X\	-gel-	1ryy	1ryy	1ryy	1ryy	(16c\LL	.	8a-X\L	.	8ccL 8f'\	.	1ryy	1ryy	8C/L	.	1ryy	8A-XL 8C\	.	8ccL 8f/	.	1cc	1a-X	.	1ff)	.	1ryy
.	.	.	.	.	.	.	.	.	16Bn\	.	.	.	.	.	.	.	.	.	.	.	.	.	.	.	.	.	.	.	.
8C/	.	.	.	.	.	.	.	.	16c\	.	8cc 8a-\	.	8ff 8cc 8f'\	.	.	.	8C/	.	.	8A- 8C\	.	8cc 8f/	.	.	.	.	.	.	.
.	.	.	.	.	.	.	.	.	16d-X\JJ)	.	.	.	.	.	.	.	.	.	.	.	.	.	.	.	.	.	.	.	.
8C/J	.	.	.	.	.	.	.	.	(16c\LL	.	8ffJ 8cc 8a-\	.	8aa-XJ 8cc 8f'\	.	.	.	8C/J	.	.	8A-J 8C\	.	8ccJ 8f/	.	.	.	.	.	.	.
.	.	.	.	.	.	.	.	.	16B\	.	.	.	.	.	.	.	.	.	.	.	.	.	.	.	.	.	.	.	.
8r	.	.	8A-\	-lis	.	.	.	.	16c\	.	8r	.	8r	.	.	.	8r	.	.	8r	.	8r	.	.	.	.	.	.	.
.	.	.	.	.	.	.	.	.	16d-\JJ)	.	.	.	.	.	.	.	.	.	.	.	.	.	.	.	.	.	.	.	.
8C/L	.	.	4F\	sub-	.	.	.	.	(16c\LL	.	8a-\L	.	8ccL 8f'\	.	.	.	8C/L	.	.	8A-L 8C\	.	8ccL 8f/	.	.	.	.	.	.	.
.	.	.	.	.	.	.	.	.	16B\	.	.	.	.	.	.	.	.	.	.	.	.	.	.	.	.	.	.	.	.
8C/	.	.	.	.	.	.	.	.	16c\	.	8cc 8a-\	.	8ff 8cc 8f'\	.	.	.	8C/	.	.	8A- 8C\	.	8cc 8f/	.	.	.	.	.	.	.
.	.	.	.	.	.	.	.	.	16d-\JJ)	.	.	.	.	.	.	.	.	.	.	.	.	.	.	.	.	.	.	.	.
8C/J	.	.	4A-\	-di-	.	.	.	.	(16c\LL	.	8ffJ 8cc 8a-\	.	8aa-XJ 8cc 8f'\	.	.	.	8C/J	.	.	8A-J 8C\	.	8ccJ 8f/	.	.	.	.	.	.	.
.	.	.	.	.	.	.	.	.	16B\	.	.	.	.	.	.	.	.	.	.	.	.	.	.	.	.	.	.	.	.
8r	.	.	.	.	.	.	.	.	16c\	.	8r	.	8r	.	.	.	8r	.	.	8r	.	8r	.	.	.	.	.	.	.
.	.	.	.	.	.	.	.	.	16d-\JJ)	.	.	.	.	.	.	.	.	.	.	.	.	.	.	.	.	.	.	.	.
=18	=18	=18	=18	=18	=18	=18	=18	=18	=18	=18	=18	=18	=18	=18	=18	=18	=18	=18	=18	=18	=18	=18	=18	=18	=18	=18	=18	=18	=18
8C/L	fp	1ryy	4c\	-tum	1ryy	1ryy	1ryy	1ryy	4c\	.	4een 4cc 4g/	.	4gg 4cc 4en\	.	1ryy	1ryy	4D/	.	1ryy	4G 4C\	.	4cc 4eX/	.	4cc/	4g\	.	4een\	.	1ryy
8C/	.	.	.	.	.	.	.	.	.	.	.	.	.	.	.	.	.	.	.	.	.	.	.	.	.	.	.	.	.
8C/	.	.	4r	.	.	.	.	.	4r	.	4r	.	4r	.	.	.	4r	.	.	4r	.	4r	.	4r	4rcyy	.	4r	.	.
8C/J	.	.	.	.	.	.	.	.	.	.	.	.	.	.	.	.	.	.	.	.	.	.	.	.	.	.	.	.	.
*	*	*	*	*	*	*	*	*	*	*	*	*	*	*	*	*	*	*	*	*clefC4	*	*	*	*	*	*	*	*	*
!	!	!	!	!	!	!	!	!	!	!	!	!	!	!	!	!	!	!	!	!	!	!	!	!LO:TX:t=P:problem:od połowy systemu partie zapisane na błednych pięcioliniach, podpisy instrumentów wyjasniają sytuację	!	!	!	!	!
!LO:TX:t=P:problem:mixed beam	!	!	!	!	!	!	!	!	!	!	!	!	!	!	!	!	!	!	!	!LO:TX:a:Bi:t=Fag.	!	!LO:TX:a:Bi:t=Corni	!	!LO:TX:a:Bi:t=Trombone	!	!	!	!	!
8BB-/L	.	.	4.G\	vi-	.	.	.	.	8en\L	.	8gL 8c/	p	2r	.	.	.	2r	.	.	(2g (2B-\	p	(2eeX (2cc\	p	2r	2rcyy	.	2r	.	.
8B-/	.	.	.	.	.	.	.	.	8e\	.	8g 8c/	.	.	.	.	.	.	.	.	.	.	.	.	.	.	.	.	.	.
8B-/	.	.	.	.	.	.	.	.	8e\	.	8g 8c/	.	.	.	.	.	.	.	.	.	.	.	.	.	.	.	.	.	.
8B-/J	.	.	(16An\LL	-dit	.	.	.	.	8e\J	.	8gJ 8c/	.	.	.	.	.	.	.	.	.	.	.	.	.	.	.	.	.	.
.	.	.	16B-\JJ)	.	.	.	.	.	.	.	.	.	.	.	.	.	.	.	.	.	.	.	.	.	.	.	.	.	.
*	*	*	*	*	*	*	*	*	*	*	*	*	*	*	*	*	*	*	*	*	*	*	*	*v	*v	*	*	*	*
=19	=19	=19	=19	=19	=19	=19	=19	=19	=19	=19	=19	=19	=19	=19	=19	=19	=19	=19	=19	=19	=19	=19	=19	=19	=19	=19	=19	=19
!LO:TX:t=P:problem:mixed beam	!	!	!	!	!	!	!	!	!	!	!	!	!	!	!	!	!	!	!	!	!	!	!	!	!	!	!	!
.	.	.	(8qd/	.	.	.	.	.	.	.	.	.	.	.	.	.	.	.	.	.	.	.	.	.	.	.	.	.
8AA/L	.	1ryy	4c\)	Je-	1ryy	1ryy	1ryy	1ryy	8f\L	.	8fL 8c/	.	8r	.	1ryy	1ryy	1r	.	1ryy	4f 4A\))	.	4ff 4cc\))	.	1r	.	1r	.	1ryy
.	.	.	.	.	.	.	.	.	.	.	.	.	(32qqgg/LLL	.	.	.	.	.	.	.	.	.	.	.	.	.	.	.
.	.	.	.	.	.	.	.	.	.	.	.	.	32qqff/	.	.	.	.	.	.	.	.	.	.	.	.	.	.	.
.	.	.	.	.	.	.	.	.	.	.	.	.	32qqeen/JJJ	.	.	.	.	.	.	.	.	.	.	.	.	.	.	.
8A/	.	.	.	.	.	.	.	.	8f\	.	8f 8c/	.	8ff\L)	.	.	.	.	.	.	.	.	.	.	.	.	.	.	.
8A/	.	.	8c\	-sum	.	.	.	.	8f\	.	8f 8c/	.	8ccc\J	.	.	.	.	.	.	4r	.	4r	.	.	.	.	.	.
8A/J	.	.	8r	.	.	.	.	.	8f\J	.	8fJ 8c/	.	8r	.	.	.	.	.	.	.	.	.	.	.	.	.	.	.
!LO:TX:t=P:problem:mixed beam	!	!	!	!	!	!	!	!	!	!	!	!	!	!	!	!	!	!	!	!	!	!	!	!	!	!	!	!
8AA-X/L	.	.	4.F\	in	.	.	.	.	8B-/L	.	8fL 8d/	.	2r	.	.	.	.	.	.	2d 2A-X\	.	2ff [2b-\	.	.	.	.	.	.
8A-X/	.	.	.	.	.	.	.	.	8B-/	.	8f 8d/	.	.	.	.	.	.	.	.	.	.	.	.	.	.	.	.	.
8A-/	.	.	.	.	.	.	.	.	8B-/	.	8f 8d/	.	.	.	.	.	.	.	.	.	.	.	.	.	.	.	.	.
8A-/J	.	.	(16G\LL	tor-	.	.	.	.	8B-/J	.	8fJ 8d/	.	.	.	.	.	.	.	.	.	.	.	.	.	.	.	.	.
.	.	.	16A-X\JJ)	.	.	.	.	.	.	.	.	.	.	.	.	.	.	.	.	.	.	.	.	.	.	.	.	.
!!LO:LB:g=original
=20	=20	=20	=20	=20	=20	=20	=20	=20	=20	=20	=20	=20	=20	=20	=20	=20	=20	=20	=20	=20	=20	=20	=20	=20	=20	=20	=20	=20
*	*	*	*	*	*	*	*	*	*	*	*	*	*	*	*	*	*	*	*	*	*	*^	*	*	*	*	*	*
!LO:TX:t=P:problem:mixed beam	!	!	!	!	!	!	!	!	!	!	!	!	!	!	!	!	!	!	!	!LO:TX:a:Bi:t=Fagotti	!	!LO:TX:a:Bi:t=Corni	!	!	!	!	!	!	!
.	.	.	(8qc/	.	.	.	.	.	.	.	.	.	.	.	.	.	.	.	.	.	.	.	.	.	.	.	.	.	.
8GG/L	.	1ryy	4B-\)	-men-	1ryy	1ryy	1ryy	1ryy	8B-/L	.	8e-/L	.	8r	.	1ryy	1ryy	1r	.	1ryy	4e- 4G\	.	4ee-/	4b-\]	.	1r	.	1r	.	1ryy
.	.	.	.	.	.	.	.	.	.	.	.	.	(32qqff/LLL	.	.	.	.	.	.	.	.	.	.	.	.	.	.	.	.
.	.	.	.	.	.	.	.	.	.	.	.	.	32qqee-/	.	.	.	.	.	.	.	.	.	.	.	.	.	.	.	.
.	.	.	.	.	.	.	.	.	.	.	.	.	32qqdd/JJJ	.	.	.	.	.	.	.	.	.	.	.	.	.	.	.	.
8G/	.	.	.	.	.	.	.	.	8B-/	.	8e-/	.	8ee-\L)	.	.	.	.	.	.	.	.	.	.	.	.	.	.	.	.
8G/	.	.	8B-\	-tis	.	.	.	.	8B-/	.	8e-/	.	8bb-\J	.	.	.	.	.	.	4r	.	4r	4rByy	.	.	.	.	.	.
8G/J	.	.	8r	.	.	.	.	.	8B-/	.	8e-/J	.	8r	.	.	.	.	.	.	.	.	.	.	.	.	.	.	.	.
*	*	*	*	*	*	*	*	*	*	*	*	*	*	*	*	*	*	*	*	*clefF4	*	*	*	*	*	*	*	*	*
!LO:TX:t=P:problem:mixed beam	!	!	!	!	!	!	!	!	!	!	!	!	!	!	!	!	!	!	!	!	!	!	!	!	!	!	!	!	!
8GG-X/L	.	.	4r	.	.	.	.	.	8B-/	.	8d-X/L	.	8en/L	.	.	.	.	.	.	2B- 2G-X\	.	(2eeX/	[2dd-X\	.	.	.	.	.	.
8G-X/	.	.	.	.	.	.	.	.	8B-/	.	8d-/	.	8e/	.	.	.	.	.	.	.	.	.	.	.	.	.	.	.	.
8G-/	.	.	8.B-\	et	.	.	.	.	8B-/	.	8d-/	.	8e/	.	.	.	.	.	.	.	.	.	.	.	.	.	.	.	.
8G-/J	.	.	.	.	.	.	.	.	8B-/J	.	8d-/J	.	8e/J	.	.	.	.	.	.	.	.	.	.	.	.	.	.	.	.
.	.	.	16B-\	fla-	.	.	.	.	.	.	.	.	.	.	.	.	.	.	.	.	.	.	.	.	.	.	.	.	.
=21	=21	=21	=21	=21	=21	=21	=21	=21	=21	=21	=21	=21	=21	=21	=21	=21	=21	=21	=21	=21	=21	=21	=21	=21	=21	=21	=21	=21	=21
*	*	*	*	*	*	*	*	*	*	*	*	*	*	*	*	*	*	*	*	*^	*	*	*	*	*	*	*	*	*
8F\L	.	1ryy	4.d-X\	-gel-	1ryy	1ryy	1ryy	1ryy	8B-/L	.	8d-X/L	.	8f/L	<	1ryy	1ryy	2r	.	1ryy	4B- 4F\	2rEEyy	.	4ff/)	4dd-X\]	.	2r	.	2r	.	1ryy
8F\	.	.	.	.	.	.	.	.	8B-/	.	8d-/	.	8f/	.	.	.	.	.	.	.	.	.	.	.	.	.	.	.	.	.
8F\	<	.	.	.	.	.	.	.	8B-/	.	8d-/	.	8f/	.	.	.	.	.	.	4r	.	.	4r	4rByy	.	.	.	.	.	.
8F\J	.	.	8B-\	-lis	.	.	.	.	8B-/	.	8d-/J	.	8f/J	.	.	.	.	.	.	.	.	.	.	.	.	.	.	.	.	.
!	!	!	!	!	!	!	!	!	!	!	!	!	!	!	!	!	!LO:TX:a:Bi:t=Trombone	!	!	!	!	!	!	!	!	!	!	!	!	!
8En\L	.	.	4.d-\	sub-	.	.	.	.	8B-/	.	8d-/L	.	8g/L	.	.	.	2En\	.	.	2G/	2En\	.	2dd-X/	2b-\	<	2dd-X 2b-\	<[	2gg\	<[	.
8E\	.	.	.	.	.	.	.	.	8B-/	.	8d-/	.	8g/	.	.	.	.	.	.	.	.	.	.	.	.	.	.	.	.	.
8E\	.	.	.	.	.	.	.	.	8B-/	.	8d-/	.	8g/	.	.	.	.	.	.	.	.	.	.	.	.	.	.	.	.	.
8E\J	[[	.	8B-\	-di-	.	.	.	.	8B-/J	.	8d-/J	.	8g/J	[	.	.	.	.	.	.	.	.	.	.	.	.	.	.	.	.
=22	=22	=22	=22	=22	=22	=22	=22	=22	=22	=22	=22	=22	=22	=22	=22	=22	=22	=22	=22	=22	=22	=22	=22	=22	=22	=22	=22	=22	=22	=22
*	*	*	*	*	*	*	*	*	*	*	*	*	*	*	*	*	*	*	*	*	*	*	*	*	*	*^	*	*	*	*
8F\L	f	1ryy	4F\	-tum	1ryy	1ryy	1ryy	1ryy	8A/L	f	8c/L	f	(16f/LL	f	1ryy	1ryy	4F\	f	1ryy	1A	1F	f	1cc	1f	[ f	1cc	1a	.	1ff	f	1ryy
.	.	.	.	.	.	.	.	.	.	.	.	.	16en/	.	.	.	.	.	.	.	.	.	.	.	.	.	.	.	.	.	.
8F\	.	.	.	.	.	.	.	.	8A/	.	8c/	.	16f/	.	.	.	.	.	.	.	.	.	.	.	.	.	.	.	.	.	.
.	.	.	.	.	.	.	.	.	.	.	.	.	16g-X/JJ)	.	.	.	.	.	.	.	.	.	.	.	.	.	.	.	.	.	.
8F\	.	.	4r	.	.	.	.	.	8A/	.	8c/	.	(16f/LL	.	.	.	4r	.	.	.	.	.	.	.	.	.	.	.	.	.	.
.	.	.	.	.	.	.	.	.	.	.	.	.	16e/	.	.	.	.	.	.	.	.	.	.	.	.	.	.	.	.	.	.
8F\J	.	.	.	.	.	.	.	.	8A/J	.	8c/J	.	16f/	.	.	.	.	.	.	.	.	.	.	.	.	.	.	.	.	.	.
.	.	.	.	.	.	.	.	.	.	.	.	.	16g-/JJ)	.	.	.	.	.	.	.	.	.	.	.	.	.	.	.	.	.	.
8F\L	.	.	4r	.	.	.	.	.	8A/L	.	8c/L	.	(16f/LL	.	.	.	4F\	.	.	.	.	.	.	.	.	.	.	.	.	.	.
.	.	.	.	.	.	.	.	.	.	.	.	.	16e/	.	.	.	.	.	.	.	.	.	.	.	.	.	.	.	.	.	.
8F\	.	.	.	.	.	.	.	.	8A/	.	8c/	.	16f/	.	.	.	.	.	.	.	.	.	.	.	.	.	.	.	.	.	.
.	.	.	.	.	.	.	.	.	.	.	.	.	16g-/JJ)	.	.	.	.	.	.	.	.	.	.	.	.	.	.	.	.	.	.
8F\	.	.	8.c\	et	.	.	.	.	8A/	.	8c/	.	(16f/LL	.	.	.	4r	.	.	.	.	.	.	.	.	.	.	.	.	.	.
.	.	.	.	.	.	.	.	.	.	.	.	.	16e/)	.	.	.	.	.	.	.	.	.	.	.	.	.	.	.	.	.	.
8F\J	.	.	.	.	.	.	.	.	8A/J	.	8c/J	.	16f'/	.	.	.	.	.	.	.	.	.	.	.	.	.	.	.	.	.	.
.	.	.	16c\	fla-	.	.	.	.	.	.	.	.	16f'/JJ	.	.	.	.	.	.	.	.	.	.	.	.	.	.	.	.	.	.
=23	=23	=23	=23	=23	=23	=23	=23	=23	=23	=23	=23	=23	=23	=23	=23	=23	=23	=23	=23	=23	=23	=23	=23	=23	=23	=23	=23	=23	=23	=23	=23
8G-X\L	.	1ryy	4.d-X\	-gel-	1ryy	1ryy	1ryy	1ryy	(16B-/LL	.	(16B-/LL	.	8en/L	.	1ryy	1ryy	1G-X	.	1ryy	1G-X	1G-	.	1b-	1b-	.	1b-	1b-	.	1een	.	1ryy
.	.	.	.	.	.	.	.	.	16A/	.	16A/	.	.	.	.	.	.	.	.	.	.	.	.	.	.	.	.	.	.	.	.
8G-\	.	.	.	.	.	.	.	.	16B-/	.	16B-/	.	8e/	.	.	.	.	.	.	.	.	.	.	.	.	.	.	.	.	.	.
.	.	.	.	.	.	.	.	.	16c/JJ)	.	16c/JJ)	.	.	.	.	.	.	.	.	.	.	.	.	.	.	.	.	.	.	.	.
8G-\	.	.	.	.	.	.	.	.	(16B-/LL	.	(16B-/LL	.	8e/	.	.	.	.	.	.	.	.	.	.	.	.	.	.	.	.	.	.
.	.	.	.	.	.	.	.	.	16A/	.	16A/	.	.	.	.	.	.	.	.	.	.	.	.	.	.	.	.	.	.	.	.
8G-\	.	.	8B-\	-lis	.	.	.	.	16B-/	.	16B-/	.	8e/	.	.	.	.	.	.	.	.	.	.	.	.	.	.	.	.	.	.
.	.	.	.	.	.	.	.	.	16c/JJ)	.	16c/JJ)	.	.	.	.	.	.	.	.	.	.	.	.	.	.	.	.	.	.	.	.
8G-\	.	.	4.d-\	sub-	.	.	.	.	(16B-/LL	.	(16B-/LL	.	8e/	.	.	.	.	.	.	.	.	.	.	.	.	.	.	.	.	.	.
.	.	.	.	.	.	.	.	.	16A/	.	16A/	.	.	.	.	.	.	.	.	.	.	.	.	.	.	.	.	.	.	.	.
8G-\	.	.	.	.	.	.	.	.	16B-/	.	16B-/	.	8e/	.	.	.	.	.	.	.	.	.	.	.	.	.	.	.	.	.	.
.	.	.	.	.	.	.	.	.	16c/JJ)	.	16c/JJ)	.	.	.	.	.	.	.	.	.	.	.	.	.	.	.	.	.	.	.	.
8G-\	.	.	.	.	.	.	.	.	(16B-/LL	.	(16B-/LL	.	8e/	.	.	.	.	.	.	.	.	.	.	.	.	.	.	.	.	.	.
.	.	.	.	.	.	.	.	.	16A/)	.	16A/)	.	.	.	.	.	.	.	.	.	.	.	.	.	.	.	.	.	.	.	.
8G-\J	.	.	8B-\	-di-	.	.	.	.	16B-'/	.	16B-'/	.	8e/J	.	.	.	.	.	.	.	.	.	.	.	.	.	.	.	.	.	.
.	.	.	.	.	.	.	.	.	16B-'/JJ	.	16B-'/JJ	.	.	.	.	.	.	.	.	.	.	.	.	.	.	.	.	.	.	.	.
!!LO:PB:g=original
=24	=24	=24	=24	=24	=24	=24	=24	=24	=24	=24	=24	=24	=24	=24	=24	=24	=24	=24	=24	=24	=24	=24	=24	=24	=24	=24	=24	=24	=24	=24	=24
8F\L	.	1ryy	4F\	-tum	1ryy	1ryy	1ryy	1ryy	8A/L	.	8c/L	.	(16f/LL	.	1ryy	1ryy	4F\	.	1ryy	1F	1F	.	1cc	1f	.	1cc	1a	.	1ff	.	1ryy
.	.	.	.	.	.	.	.	.	.	.	.	.	16en/	.	.	.	.	.	.	.	.	.	.	.	.	.	.	.	.	.	.
8F\	.	.	.	.	.	.	.	.	8A/	.	8c/	.	16f/	.	.	.	.	.	.	.	.	.	.	.	.	.	.	.	.	.	.
.	.	.	.	.	.	.	.	.	.	.	.	.	16g-X/JJ)	.	.	.	.	.	.	.	.	.	.	.	.	.	.	.	.	.	.
8F\	.	.	4r	.	.	.	.	.	8A/	.	8c/	.	(16f/LL	.	.	.	4r	.	.	.	.	.	.	.	.	.	.	.	.	.	.
.	.	.	.	.	.	.	.	.	.	.	.	.	16e/	.	.	.	.	.	.	.	.	.	.	.	.	.	.	.	.	.	.
8F\	.	.	.	.	.	.	.	.	8A/	.	8c/	.	16f/	.	.	.	.	.	.	.	.	.	.	.	.	.	.	.	.	.	.
.	.	.	.	.	.	.	.	.	.	.	.	.	16g-/JJ)	.	.	.	.	.	.	.	.	.	.	.	.	.	.	.	.	.	.
8F\	.	.	4r	.	.	.	.	.	8A/	.	8c/	.	(16f/LL	.	.	.	4F\	.	.	.	.	.	.	.	.	.	.	.	.	.	.
.	.	.	.	.	.	.	.	.	.	.	.	.	16e/	.	.	.	.	.	.	.	.	.	.	.	.	.	.	.	.	.	.
8F\	.	.	.	.	.	.	.	.	8A/	.	8c/	.	16f/	.	.	.	.	.	.	.	.	.	.	.	.	.	.	.	.	.	.
.	.	.	.	.	.	.	.	.	.	.	.	.	16g-/JJ)	.	.	.	.	.	.	.	.	.	.	.	.	.	.	.	.	.	.
8F\	.	.	4c\	fla-	.	.	.	.	8A/	.	8c/	.	(16f/LL	.	.	.	4r	.	.	.	.	.	.	.	.	.	.	.	.	.	.
.	.	.	.	.	.	.	.	.	.	.	.	.	16e/)	.	.	.	.	.	.	.	.	.	.	.	.	.	.	.	.	.	.
8F\J	.	.	.	.	.	.	.	.	8A/J	.	8c/J	.	16f'/	.	.	.	.	.	.	.	.	.	.	.	.	.	.	.	.	.	.
.	.	.	.	.	.	.	.	.	.	.	.	.	16f'/JJ	.	.	.	.	.	.	.	.	.	.	.	.	.	.	.	.	.	.
=25	=25	=25	=25	=25	=25	=25	=25	=25	=25	=25	=25	=25	=25	=25	=25	=25	=25	=25	=25	=25	=25	=25	=25	=25	=25	=25	=25	=25	=25	=25	=25
8G-X\L	.	1ryy	4.d-X\	-gel-	1ryy	1ryy	1ryy	1ryy	(16B-/LL	.	(16B-/LL	.	8en/L	.	1ryy	1ryy	1G-X	.	1ryy	1G-X	1G-	.	1b-	1b-	.	1b-	1b-	.	1een	.	1ryy
.	.	.	.	.	.	.	.	.	16A/	.	16A/	.	.	.	.	.	.	.	.	.	.	.	.	.	.	.	.	.	.	.	.
8G-\	.	.	.	.	.	.	.	.	16B-/	.	16B-/	.	8e/	.	.	.	.	.	.	.	.	.	.	.	.	.	.	.	.	.	.
.	.	.	.	.	.	.	.	.	16c/JJ)	.	16c/JJ)	.	.	.	.	.	.	.	.	.	.	.	.	.	.	.	.	.	.	.	.
8G-\	.	.	.	.	.	.	.	.	(16B-/LL	.	(16B-/LL	.	8e/	.	.	.	.	.	.	.	.	.	.	.	.	.	.	.	.	.	.
.	.	.	.	.	.	.	.	.	16A/	.	16A/	.	.	.	.	.	.	.	.	.	.	.	.	.	.	.	.	.	.	.	.
8G-\	.	.	8B-\	-lis	.	.	.	.	16B-/	.	16B-/	.	8e/	.	.	.	.	.	.	.	.	.	.	.	.	.	.	.	.	.	.
.	.	.	.	.	.	.	.	.	16c/JJ)	.	16c/JJ)	.	.	.	.	.	.	.	.	.	.	.	.	.	.	.	.	.	.	.	.
8G-\	.	.	4.B-\	sub-	.	.	.	.	(16B-/LL	.	(16B-/LL	.	8e/	.	.	.	.	.	.	.	.	.	.	.	.	.	.	.	.	.	.
.	.	.	.	.	.	.	.	.	16A/	.	16A/	.	.	.	.	.	.	.	.	.	.	.	.	.	.	.	.	.	.	.	.
8G-\	.	.	.	.	.	.	.	.	16B-/	.	16B-/	.	8e/	.	.	.	.	.	.	.	.	.	.	.	.	.	.	.	.	.	.
.	.	.	.	.	.	.	.	.	16c/JJ)	.	16c/JJ)	.	.	.	.	.	.	.	.	.	.	.	.	.	.	.	.	.	.	.	.
8G-\	.	.	.	.	.	.	.	.	(16B-/LL	.	(16B-/LL	.	8e/	.	.	.	.	.	.	.	.	.	.	.	.	.	.	.	.	.	.
.	.	.	.	.	.	.	.	.	16A/)	.	16A/)	.	.	.	.	.	.	.	.	.	.	.	.	.	.	.	.	.	.	.	.
8G-\J	.	.	8En\	-di-	.	.	.	.	16B-'/	.	16B-'/	.	8e/J	.	.	.	.	.	.	.	.	.	.	.	.	.	.	.	.	.	.
.	.	.	.	.	.	.	.	.	16B-'/JJ	.	16B-'/JJ	.	.	.	.	.	.	.	.	.	.	.	.	.	.	.	.	.	.	.	.
*	*	*	*	*	*	*	*	*	*	*	*	*	*	*	*	*	*	*	*	*	*	*	*v	*v	*	*	*	*	*	*	*
*	*	*	*	*	*	*	*	*	*	*	*	*	*	*	*	*	*	*	*	*	*	*	*	*	*v	*v	*	*	*	*
=26	=26	=26	=26	=26	=26	=26	=26	=26	=26	=26	=26	=26	=26	=26	=26	=26	=26	=26	=26	=26	=26	=26	=26	=26	=26	=26	=26	=26	=26
8F\L	.	1ryy	4F\	-tum	1ryy	1ryy	1ryy	1ryy	8A/L	.	8c/L	.	8f/L	.	1ryy	1ryy	8F\	.	1ryy	8F/	8F\	.	8cc 8f/	.	8cc 8a\	.	8ff\	.	1ryy
32r	.	.	.	.	.	.	.	.	32r	.	32r	.	32r	.	.	.	8r	.	.	8r	8rEEyy	.	8r	.	8r	.	8r	.	.
!	!	!	!	!	!	!	!	!	!LO:TX:a:t=Col b&colon;	!	!	!	!	!	!	!	!	!	!	!	!	!	!	!	!	!	!	!	!
(32A\LL	.	.	.	.	.	.	.	.	(32A/LL	.	(32a/LL	.	(32a/LL	.	.	.	.	.	.	.	.	.	.	.	.	.	.	.	.
32G\	.	.	.	.	.	.	.	.	32G/	.	32g/	.	32g/	.	.	.	.	.	.	.	.	.	.	.	.	.	.	.	.
32F\JJJ	.	.	.	.	.	.	.	.	32F/JJJ	.	32f/JJJ	.	32f/JJJ	.	.	.	.	.	.	.	.	.	.	.	.	.	.	.	.
8E-\L)	.	.	4r	.	.	.	.	.	8E-/L)	.	8e-/L)	.	8e-/L)	.	.	.	4r	.	.	4r	4rEEyy	.	4r	.	4r	.	4r	.	.
32r	.	.	.	.	.	.	.	.	32r	.	32r	.	32r	.	.	.	.	.	.	.	.	.	.	.	.	.	.	.	.
(32G\LL	.	.	.	.	.	.	.	.	(32G/LL	.	(32g/LL	.	(32g/LL	.	.	.	.	.	.	.	.	.	.	.	.	.	.	.	.
32F\	.	.	.	.	.	.	.	.	32F/	.	32f/	.	32f/	.	.	.	.	.	.	.	.	.	.	.	.	.	.	.	.
32E-\JJJ	.	.	.	.	.	.	.	.	32E-/JJJ	.	32e-/JJJ	.	32e-/JJJ	.	.	.	.	.	.	.	.	.	.	.	.	.	.	.	.
8D\L)	.	.	2r	.	.	.	.	.	8D/L)	.	8d/L)	.	8d/L)	.	.	.	2r	.	.	2r	2rEEyy	.	2r	.	2r	.	2r	.	.
32r	.	.	.	.	.	.	.	.	32r	.	32r	.	32r	.	.	.	.	.	.	.	.	.	.	.	.	.	.	.	.
(32F\LL	.	.	.	.	.	.	.	.	(32F/LL	.	(32f/LL	.	(32f/LL	.	.	.	.	.	.	.	.	.	.	.	.	.	.	.	.
32E-\	.	.	.	.	.	.	.	.	32E-/	.	32e-/	.	32e-/	.	.	.	.	.	.	.	.	.	.	.	.	.	.	.	.
32D\JJJ	.	.	.	.	.	.	.	.	32D/JJJ	.	32d/JJJ)	.	32d/JJJ)	.	.	.	.	.	.	.	.	.	.	.	.	.	.	.	.
8C/L)	.	.	.	.	.	.	.	.	8C/L)	.	8c/L	.	8c/L	.	.	.	.	.	.	.	.	.	.	.	.	.	.	.	.
32r	.	.	.	.	.	.	.	.	32r	.	32r	.	32r	.	.	.	.	.	.	.	.	.	.	.	.	.	.	.	.
(32E-/LL	.	.	.	.	.	.	.	.	(32E-/LL	.	(32e-/LL	.	(32e-/LL	.	.	.	.	.	.	.	.	.	.	.	.	.	.	.	.
32D/	.	.	.	.	.	.	.	.	32D/	.	32d/	.	32d/	.	.	.	.	.	.	.	.	.	.	.	.	.	.	.	.
32C/JJJ)	.	.	.	.	.	.	.	.	32C/JJJ)	.	32c/JJJ)	.	32c/JJJ)	.	.	.	.	.	.	.	.	.	.	.	.	.	.	.	.
!!LO:LB:g=original
*	*	*	*	*	*	*	*	*	*	*	*	*	*	*	*	*	*	*	*	*v	*v	*	*	*	*	*	*	*	*
=27	=27	=27	=27	=27	=27	=27	=27	=27	=27	=27	=27	=27	=27	=27	=27	=27	=27	=27	=27	=27	=27	=27	=27	=27	=27	=27	=27	=27
*	*	*	*	*	*	*	*	*	*	*	*	*	*	*	*	*	*	*	*	*	*	*^	*	*	*	*	*	*
!	!	!	!	!	!	!	!	!	!	!	!LO:TX:b:i:t=Uniſ	!	!	!	!	!	!	!	!	!	!	!	!	!	!	!	!	!	!
4BB-/	.	1ryy	1r	.	1ryy	1ryy	1ryy	1ryy	4B-/	.	4B-/	.	4B-/	.	1ryy	1ryy	1r	.	1ryy	4BB-/	.	4B-/	4B-\	f	4B-/	.	4b-\	f	1ryy
8.r	.	.	.	.	.	.	.	.	8.r	.	8.r	.	8.r	.	.	.	.	.	.	8.r	.	8.r	8.rByy	.	8.r	.	8.r	.	.
(32BB-/LLL	.	.	.	.	.	.	.	.	(32B-/LLL	.	(32B-/LLL	.	(32B-/LLL	.	.	.	.	.	.	(32BB-/LLL	.	16B-/	16B-\	.	(32B-/LLL	.	(32b-\LLL	.	.
32C/JJJ	.	.	.	.	.	.	.	.	32c/JJJ	.	32c/JJJ	.	32c/JJJ	.	.	.	.	.	.	32C/JJJ	.	.	.	.	32c/JJJ	.	32cc\JJJ	.	.
8D\L)	.	.	.	.	.	.	.	.	8d\L)	.	8d/L)	.	8d/L)	.	.	.	.	.	.	8D\L)	.	4d/	4d\	.	8d/L)	.	8dd\L)	.	.
16r	.	.	.	.	.	.	.	.	16r	.	16r	.	16r	.	.	.	.	.	.	16r	.	.	.	.	16r	.	16r	.	.
(32D\LL	.	.	.	.	.	.	.	.	(32d\LL	.	(32d/LL	.	(32d/LL	.	.	.	.	.	.	(32D\LL	.	.	.	.	(32d/LL	.	(32dd\LL	.	.
32E-\JJJ	.	.	.	.	.	.	.	.	32e-\JJJ	.	32e-/JJJ	.	32e-/JJJ	.	.	.	.	.	.	32E-\JJJ	.	.	.	.	32e-/JJJ	.	32ee-\JJJ	.	.
8F\L)	.	.	.	.	.	.	.	.	8f\L)	.	8f/L)	.	8f/L)	.	.	.	.	.	.	8F\L)	.	4f/	4f\	.	8f/L)	.	8ff\L)	.	.
32r	.	.	.	.	.	.	.	.	32r	.	32r	.	32r	.	.	.	.	.	.	32r	.	.	.	.	32r	.	32r	.	.
(32F\LL	.	.	.	.	.	.	.	.	32f\LL	.	(32f/LL	.	(32f/LL	.	.	.	.	.	.	(32F\LL	.	.	.	.	(32f/LL	.	(32ff\LL	.	.
32G\	.	.	.	.	.	.	.	.	32g\	.	32g/	.	32g/	.	.	.	.	.	.	32G\	.	.	.	.	32g/	.	32gg\	.	.
32A\JJJ	.	.	.	.	.	.	.	.	32a\JJJ	.	32a/JJJ	.	32a/JJJ	.	.	.	.	.	.	32A\JJJ	.	.	.	.	32a/JJJ	.	32aa\JJJ	.	.
=28	=28	=28	=28	=28	=28	=28	=28	=28	=28	=28	=28	=28	=28	=28	=28	=28	=28	=28	=28	=28	=28	=28	=28	=28	=28	=28	=28	=28	=28
4B-\)	.	1ryy	4r	.	1ryy	1ryy	1ryy	1ryy	4b-\	.	4b-/)	.	4b-/)	.	1ryy	1ryy	4r	.	1ryy	4B-\)	.	4b-/	4b-\	.	4b-/)	.	4bb-\)	.	1ryy
!	!	!	!	!	!	!	!	!	!	!	!	!	!	!	!	!	!LO:TX:a:Bi:t=Solo	!	!	!	!	!	!	!	!	!	!	!	!
4r	.	.	2B-\	Pro	.	.	.	.	4r	.	4r	.	4r	.	.	.	2B-\	.	.	4r	.	4r	4rByy	.	4r	.	4r	.	.
2r	.	.	.	.	.	.	.	.	2r	.	2r	.	2r	.	.	.	.	.	.	2r	.	2r	2rByy	.	2r	.	2r	.	.
.	.	.	4B-\	pec-	.	.	.	.	.	.	.	.	.	.	.	.	4B-\	.	.	.	.	.	.	.	.	.	.	.	.
*	*	*	*	*	*	*	*	*	*	*	*	*	*	*	*	*	*	*	*	*	*	*v	*v	*	*	*	*	*	*
=29	=29	=29	=29	=29	=29	=29	=29	=29	=29	=29	=29	=29	=29	=29	=29	=29	=29	=29	=29	=29	=29	=29	=29	=29	=29	=29	=29	=29
1r	.	1ryy	4.d\	-ca-	1ryy	1ryy	1ryy	1ryy	1r	.	1r	.	1r	.	1ryy	1ryy	4.d\	.	1ryy	1r	.	1r	.	1r	.	1r	.	1ryy
.	.	.	8B-\	-tis	.	.	.	.	.	.	.	.	.	.	.	.	8B-\	.	.	.	.	.	.	.	.	.	.	.
.	.	.	(8F\L	su-	.	.	.	.	.	.	.	.	.	.	.	.	4F\	.	.	.	.	.	.	.	.	.	.	.
.	.	.	8B-\J)	.	.	.	.	.	.	.	.	.	.	.	.	.	.	.	.	.	.	.	.	.	.	.	.	.
.	.	.	(8D\L	-ae	.	.	.	.	.	.	.	.	.	.	.	.	4D\	.	.	.	.	.	.	.	.	.	.	.
.	.	.	8F\J)	.	.	.	.	.	.	.	.	.	.	.	.	.	.	.	.	.	.	.	.	.	.	.	.	.
=30	=30	=30	=30	=30	=30	=30	=30	=30	=30	=30	=30	=30	=30	=30	=30	=30	=30	=30	=30	=30	=30	=30	=30	=30	=30	=30	=30	=30
*^	*	*	*	*	*	*	*	*	*	*	*	*	*	*	*	*	*	*	*	*	*	*	*	*	*	*	*	*
!LO:TX:t=P:problem:mixed beam	!	!	!	!	!	!	!	!	!	!	!	!	!	!	!	!	!	!	!	!	!	!	!	!	!	!	!	!	!
8BB-/L	4BB-\	p	1ryy	4BB-/	gen-	1ryy	1ryy	1ryy	1ryy	1r	.	8r	.	2r	.	1ryy	1ryy	4.BB-/	.	1ryy	1r	.	1r	.	1r	.	2r	.	1ryy
8B-/	.	.	.	.	.	.	.	.	.	.	.	(8d'/L	p	.	.	.	.	.	.	.	.	.	.	.	.	.	.	.	.
8B-/	4rBB	.	.	8BB-/	-tis	.	.	.	.	.	.	8d'/	.	.	.	.	.	.	.	.	.	.	.	.	.	.	.	.	.
8B-/J	.	.	.	8r	.	.	.	.	.	.	.	8d'/J)	.	.	.	.	.	8r	.	.	.	.	.	.	.	.	.	.	.
!LO:TX:t=P:problem:mixed beam	!	!	!	!	!	!	!	!	!	!	!	!	!	!	!	!	!	!	!	!	!	!	!	!	!	!	!	!	!
8BB-/L	4BB-\	.	.	4.G\	pro	.	.	.	.	.	.	8r	.	(4.g/	p	.	.	2r	.	.	.	.	.	.	.	.	(4.gg\	p	.
8B-/	.	.	.	.	.	.	.	.	.	.	.	(8e-'/L	.	.	.	.	.	.	.	.	.	.	.	.	.	.	.	.	.
8B-/	4rBB	.	.	.	.	.	.	.	.	.	.	8e-'/	.	.	.	.	.	.	.	.	.	.	.	.	.	.	.	.	.
8c/J	.	.	.	8A\	pec-	.	.	.	.	.	.	8e-'/J)	.	8a/)	.	.	.	.	.	.	.	.	.	.	.	.	8aa\)	.	.
!!LO:PB:g=original
=31	=31	=31	=31	=31	=31	=31	=31	=31	=31	=31	=31	=31	=31	=31	=31	=31	=31	=31	=31	=31	=31	=31	=31	=31	=31	=31	=31	=31	=31
!LO:TX:t=P:problem:mixed beam	!	!	!	!	!	!	!	!	!	!	!	!	!	!	!	!	!	!	!	!	!	!	!	!	!	!	!	!	!
8BB-/L	4BB-\	.	1ryy	(4B-\	-ca-	1ryy	1ryy	1ryy	1ryy	8r	.	8r	.	(4b-/	.	1ryy	1ryy	1r	.	1ryy	1r	.	1r	.	1r	.	(4bb-\	.	1ryy
8B-/	.	.	.	.	.	.	.	.	.	8F/L	.	(8d'/L	.	.	.	.	.	.	.	.	.	.	.	.	.	.	.	.	.
8B-/	4rBB	.	.	8F\)	-tis	.	.	.	.	8F/	.	8d'/	.	8f/)	.	.	.	.	.	.	.	.	.	.	.	.	8ff\)	.	.
8B-/J	.	.	.	8r	.	.	.	.	.	8F/J	.	8d'/J)	.	8r	.	.	.	.	.	.	.	.	.	.	.	.	8r	.	.
!LO:TX:t=P:problem:mixed beam	!	!	!	!	!	!	!	!	!	!	!	!	!	!	!	!	!	!	!	!	!	!	!	!	!	!	!	!	!
8BB-/L	4BB-\	.	.	4.G\	pro	.	.	.	.	8r	.	8r	.	(4.g/	.	.	.	.	.	.	.	.	.	.	.	.	(4.gg\	.	.
8B-/	.	.	.	.	.	.	.	.	.	8G/L	.	(8e-'/L	.	.	.	.	.	.	.	.	.	.	.	.	.	.	.	.	.
8B-/	4rBB	.	.	.	.	.	.	.	.	8G/	.	8e-'/	.	.	.	.	.	.	.	.	.	.	.	.	.	.	.	.	.
8c/J	.	.	.	8A\	pec-	.	.	.	.	8G-X/J	.	8e-'/J)	.	8a/)	.	.	.	.	.	.	.	.	.	.	.	.	8aa\)	.	.
=32	=32	=32	=32	=32	=32	=32	=32	=32	=32	=32	=32	=32	=32	=32	=32	=32	=32	=32	=32	=32	=32	=32	=32	=32	=32	=32	=32	=32	=32
!LO:TX:t=P:problem:mixed beam	!	!	!	!	!	!	!	!	!	!	!	!	!	!	!	!	!	!	!	!	!	!	!	!	!	!	!	!	!
8BB-/L	4BB-\	.	1ryy	([8c\L	-ca-	1ryy	1ryy	1ryy	1ryy	8r	.	8r	.	([8cc/L	.	1ryy	1ryy	1r	.	1ryy	1r	.	1r	.	1r	.	([8ccc\L	.	1ryy
8B-/	.	.	.	32c\LL]	.	.	.	.	.	8F/L	.	(8d'/L	.	32cc/LL]	.	.	.	.	.	.	.	.	.	.	.	.	32ccc\LL]	.	.
.	.	.	.	32B-\	.	.	.	.	.	.	.	.	.	32b-/	.	.	.	.	.	.	.	.	.	.	.	.	32bb-\	.	.
.	.	.	.	32A\	.	.	.	.	.	.	.	.	.	32a/	.	.	.	.	.	.	.	.	.	.	.	.	32aa\	.	.
.	.	.	.	32B-\JJJ)	.	.	.	.	.	.	.	.	.	32b-/JJJ	.	.	.	.	.	.	.	.	.	.	.	.	32bb-\JJJ	.	.
8B-/	4rBB	.	.	8F\	-tis	.	.	.	.	8F/	.	8d'/	.	8f/)	.	.	.	.	.	.	.	.	.	.	.	.	8ff\)	.	.
8B-/J	.	.	.	8r	.	.	.	.	.	8F/J	.	8d'/J)	.	8r	.	.	.	.	.	.	.	.	.	.	.	.	8r	.	.
8E-\	2rEEyy	.	.	([8G\L	su-	.	.	.	.	8r	.	8r	.	(4.g/	.	.	.	.	.	.	.	.	.	.	.	.	2r	.	.
8r	.	.	.	32G\LL]	.	.	.	.	.	8G 8E-/	.	8c/	.	.	.	.	.	.	.	.	.	.	.	.	.	.	.	.	.
.	.	.	.	32A\	.	.	.	.	.	.	.	.	.	.	.	.	.	.	.	.	.	.	.	.	.	.	.	.	.
.	.	.	.	32G\)	.	.	.	.	.	.	.	.	.	.	.	.	.	.	.	.	.	.	.	.	.	.	.	.	.
.	.	.	.	32F#X\JJJ	.	.	.	.	.	.	.	.	.	.	.	.	.	.	.	.	.	.	.	.	.	.	.	.	.
8C\	.	.	.	(8G\L	-ae	.	.	.	.	8r	.	8r	.	.	.	.	.	.	.	.	.	.	.	.	.	.	.	.	.
8r	.	.	.	8c\J)	.	.	.	.	.	8G/	.	8e- 8c/	.	8cc\)	.	.	.	.	.	.	.	.	.	.	.	.	.	.	.
*v	*v	*	*	*	*	*	*	*	*	*	*	*	*	*	*	*	*	*	*	*	*	*	*	*	*	*	*	*	*
=33	=33	=33	=33	=33	=33	=33	=33	=33	=33	=33	=33	=33	=33	=33	=33	=33	=33	=33	=33	=33	=33	=33	=33	=33	=33	=33	=33	=33
4F\	.	1ryy	8B-\L	gen-	1ryy	1ryy	1ryy	1ryy	4r	.	4r	.	(8b-/L	.	1ryy	1ryy	1ryy	.	1ryy	1ryy	.	1ryy	.	1ryy	.	1r	.	1ryy
.	.	.	8F\J	.	.	.	.	.	.	.	.	.	8f/J)	.	.	.	.	.	.	.	.	.	.	.	.	.	.	.
4r	.	.	(2d\	.	.	.	.	.	4F/	.	4d 4B-/	.	4dd\	.	.	.	.	.	.	.	.	.	.	.	.	.	.	.
4E-\	.	.	.	.	.	.	.	.	4r	.	4r	.	4r	.	.	.	.	.	.	.	.	.	.	.	.	.	.	.
4r	.	.	4c\)	.	.	.	.	.	4F/	.	4c/	.	4a/	.	.	.	.	.	.	.	.	.	.	.	.	.	.	.
=34	=34	=34	=34	=34	=34	=34	=34	=34	=34	=34	=34	=34	=34	=34	=34	=34	=34	=34	=34	=34	=34	=34	=34	=34	=34	=34	=34	=34
4D\	.	1ryy	2B-\	.	1ryy	1ryy	1ryy	1ryy	4r	.	4r	.	4r	.	1ryy	1ryy	1ryy	.	1ryy	1ryy	.	1ryy	.	1ryy	.	1ryy	.	1ryy
4r	.	.	.	.	.	.	.	.	4d\	.	4f 4B-/	.	4b-\	.	.	.	.	.	.	.	.	.	.	.	.	.	.	.
4E-\	.	.	4.G-X\	.	.	.	.	.	4r	.	4r	.	4r	.	.	.	.	.	.	.	.	.	.	.	.	.	.	.
4r	.	.	.	.	.	.	.	.	4e-\	.	4g-X/	.	4cc\	.	.	.	.	.	.	.	.	.	.	.	.	.	.	.
.	.	.	8c\	.	.	.	.	.	.	.	.	.	.	.	.	.	.	.	.	.	.	.	.	.	.	.	.	.
!!LO:LB:g=original
=35	=35	=35	=35	=35	=35	=35	=35	=35	=35	=35	=35	=35	=35	=35	=35	=35	=35	=35	=35	=35	=35	=35	=35	=35	=35	=35	=35	=35
4F\	.	1ryy	8F'\	-Je-	1ryy	1ryy	1ryy	1ryy	4r	.	4r	.	4r	.	1ryy	1ryy	1r	.	1ryy	1r	.	1r	.	1r	.	1r	.	1ryy
.	.	.	8B-'\	-sum	.	.	.	.	.	.	.	.	.	.	.	.	.	.	.	.	.	.	.	.	.	.	.	.
4r	.	.	8D\	in	.	.	.	.	4d\	.	4f/	.	4b-/	.	.	.	.	.	.	.	.	.	.	.	.	.	.	.
.	.	.	8F\	tor-	.	.	.	.	.	.	.	.	.	.	.	.	.	.	.	.	.	.	.	.	.	.	.	.
8F\	.	.	(4.FF/	-men-	.	.	.	.	8r	.	8r	.	8r	.	.	.	.	.	.	.	.	.	.	.	.	.	.	.
8r	.	.	.	.	.	.	.	.	8d\	.	8f/	.	8b-/	.	.	.	.	.	.	.	.	.	.	.	.	.	.	.
8FF/	.	.	.	.	.	.	.	.	8r	.	8r	.	8r	.	.	.	.	.	.	.	.	.	.	.	.	.	.	.
8r	.	.	16GG/LL	.	.	.	.	.	8c\	.	8e-/	.	8a/	.	.	.	.	.	.	.	.	.	.	.	.	.	.	.
.	.	.	16AA/JJ)	.	.	.	.	.	.	.	.	.	.	.	.	.	.	.	.	.	.	.	.	.	.	.	.	.
=36	=36	=36	=36	=36	=36	=36	=36	=36	=36	=36	=36	=36	=36	=36	=36	=36	=36	=36	=36	=36	=36	=36	=36	=36	=36	=36	=36	=36
(16BB-/LL	f	1ryy	4BB-/	-tis	1ryy	1ryy	1ryy	1ryy	(16B-/LL	f	4d/	.	4b-/	.	1ryy	1ryy	2r	.	1ryy	2r	.	2r	.	2r	.	2r	.	1ryy
16AA/	.	.	.	.	.	.	.	.	16A/	.	.	.	.	.	.	.	.	.	.	.	.	.	.	.	.	.	.	.
16BB-/	.	.	.	.	.	.	.	.	16B-/	.	.	.	.	.	.	.	.	.	.	.	.	.	.	.	.	.	.	.
16C/JJ)	.	.	.	.	.	.	.	.	16c/JJ)	.	.	.	.	.	.	.	.	.	.	.	.	.	.	.	.	.	.	.
(16BB-/LL	.	.	4r	.	.	.	.	.	(16B-/LL	.	4r	.	4r	.	.	.	.	.	.	.	.	.	.	.	.	.	.	.
16AA/	.	.	.	.	.	.	.	.	16A/	.	.	.	.	.	.	.	.	.	.	.	.	.	.	.	.	.	.	.
16BB-/	.	.	.	.	.	.	.	.	16B-/	.	.	.	.	.	.	.	.	.	.	.	.	.	.	.	.	.	.	.
16C/JJ)	.	.	.	.	.	.	.	.	16c/JJ)	.	.	.	.	.	.	.	.	.	.	.	.	.	.	.	.	.	.	.
(16BB-/LL	.	.	4r	.	.	.	.	.	(16B-/LL	.	4r	.	4r	.	.	.	4r	.	.	4r	.	4r	.	4r	.	4r	.	.
16AA/	.	.	.	.	.	.	.	.	16A/	.	.	.	.	.	.	.	.	.	.	.	.	.	.	.	.	.	.	.
16BB-/	.	.	.	.	.	.	.	.	16B-/	.	.	.	.	.	.	.	.	.	.	.	.	.	.	.	.	.	.	.
16C/JJ)	.	.	.	.	.	.	.	.	16c/JJ)	.	.	.	.	.	.	.	.	.	.	.	.	.	.	.	.	.	.	.
*	*	*	*	*	*	*	*	*	*	*	*	*	*	*	*	*	*	*	*	*clefC4	*	*	*	*	*	*	*	*
(16BB-/LL	.	.	8.F\	et	.	.	.	.	(16B-/LL	.	8.d/L	<	8.f/L	<	.	.	8.BB-/L	.	.	8.dL 8.F\	.	8.b-L 8.B-/	<	8.ddL 8.f/	.	8.ff\L	<	.
16AA/)	.	.	.	.	.	.	.	.	16A/)	.	.	.	.	.	.	.	.	.	.	.	.	.	.	.	.	.	.	.
16BB-'/	.	.	.	.	.	.	.	.	16B-'/	.	.	.	.	.	.	.	.	.	.	.	.	.	.	.	.	.	.	.
16BB-'/JJ	.	.	16F\	Fla-	.	.	.	.	16B-'/JJ	.	16d/Jk	[[	16f/Jk	[[	.	.	16BB-/Jk	.	.	16dJk 16F\	.	16b-Jk 16B-/	[[	16ddJk 16f/	.	16ff\Jk	[	.
=37	=37	=37	=37	=37	=37	=37	=37	=37	=37	=37	=37	=37	=37	=37	=37	=37	=37	=37	=37	=37	=37	=37	=37	=37	=37	=37	=37	=37
8BB-/L	.	1ryy	4.G-X\	-gel-	1ryy	1ryy	1ryy	1ryy	8B-/L	.	(16e-/LL	f	8g-X/L	f	1ryy	1ryy	1BB-	f	1ryy	1e- 1G-X	.	1b- 1B-	f	1ee- 1g-X	.	1gg-X	f	1ryy
.	.	.	.	.	.	.	.	.	.	.	16d/	.	.	.	.	.	.	.	.	.	.	.	.	.	.	.	.	.
8BB-/	.	.	.	.	.	.	.	.	8B-/	.	16e-/	.	8g-/	.	.	.	.	.	.	.	.	.	.	.	.	.	.	.
.	.	.	.	.	.	.	.	.	.	.	16f/JJ)	.	.	.	.	.	.	.	.	.	.	.	.	.	.	.	.	.
8BB-/	.	.	.	.	.	.	.	.	8B-/	.	(16e-/LL	.	8g-/	.	.	.	.	.	.	.	.	.	.	.	.	.	.	.
.	.	.	.	.	.	.	.	.	.	.	16d/	.	.	.	.	.	.	.	.	.	.	.	.	.	.	.	.	.
8BB-/	.	.	8E-\	-lis	.	.	.	.	8B-/	.	16e-/	.	8g-/	.	.	.	.	.	.	.	.	.	.	.	.	.	.	.
.	.	.	.	.	.	.	.	.	.	.	16f/JJ)	.	.	.	.	.	.	.	.	.	.	.	.	.	.	.	.	.
8BB-/	.	.	4G-\	sub-	.	.	.	.	8B-/	.	(16e-/LL	.	8g-/	.	.	.	.	.	.	.	.	.	.	.	.	.	.	.
.	.	.	.	.	.	.	.	.	.	.	16d/	.	.	.	.	.	.	.	.	.	.	.	.	.	.	.	.	.
8BB-/	.	.	.	.	.	.	.	.	8B-/	.	16e-/	.	8g-/	.	.	.	.	.	.	.	.	.	.	.	.	.	.	.
.	.	.	.	.	.	.	.	.	.	.	16f/JJ)	.	.	.	.	.	.	.	.	.	.	.	.	.	.	.	.	.
8BB-/	.	.	4E-\	-di-	.	.	.	.	8B-/	.	(16e-/LL	.	8g-/	.	.	.	.	.	.	.	.	.	.	.	.	.	.	.
.	.	.	.	.	.	.	.	.	.	.	16d/)	.	.	.	.	.	.	.	.	.	.	.	.	.	.	.	.	.
8BB-/J	.	.	.	.	.	.	.	.	8B-/J	.	16e-'/	.	8g-/J	.	.	.	.	.	.	.	.	.	.	.	.	.	.	.
.	.	.	.	.	.	.	.	.	.	.	16e-'/JJ	.	.	.	.	.	.	.	.	.	.	.	.	.	.	.	.	.
=38	=38	=38	=38	=38	=38	=38	=38	=38	=38	=38	=38	=38	=38	=38	=38	=38	=38	=38	=38	=38	=38	=38	=38	=38	=38	=38	=38	=38
(16BB-/LL	.	1ryy	4BB-/	-tum	1ryy	1ryy	1ryy	1ryy	(16B-/LL	.	4d/	.	4f/	.	1ryy	1ryy	4BB-/	.	1ryy	4d 4F\	.	4b- 4B-/	.	4dd 4f/	.	4ff\	.	1ryy
16AA/	.	.	.	.	.	.	.	.	16A/	.	.	.	.	.	.	.	.	.	.	.	.	.	.	.	.	.	.	.
16BB-/	.	.	.	.	.	.	.	.	16B-/	.	.	.	.	.	.	.	.	.	.	.	.	.	.	.	.	.	.	.
16C/JJ)	.	.	.	.	.	.	.	.	16c/JJ)	.	.	.	.	.	.	.	.	.	.	.	.	.	.	.	.	.	.	.
(16BB-/LL	.	.	4r	.	.	.	.	.	(16B-/LL	.	4r	.	4r	.	.	.	4r	.	.	4r	.	4r	.	4r	.	4r	.	.
16AA/	.	.	.	.	.	.	.	.	16A/	.	.	.	.	.	.	.	.	.	.	.	.	.	.	.	.	.	.	.
16BB-/	.	.	.	.	.	.	.	.	16B-/	.	.	.	.	.	.	.	.	.	.	.	.	.	.	.	.	.	.	.
16C/JJ)	.	.	.	.	.	.	.	.	16c/JJ)	.	.	.	.	.	.	.	.	.	.	.	.	.	.	.	.	.	.	.
(16BB-/LL	.	.	4r	.	.	.	.	.	(16B-/LL	.	4r	.	4r	.	.	.	4r	.	.	4r	.	4r	.	4r	.	4r	.	.
16AA/	.	.	.	.	.	.	.	.	16A/	.	.	.	.	.	.	.	.	.	.	.	.	.	.	.	.	.	.	.
16BB-/	.	.	.	.	.	.	.	.	16B-/	.	.	.	.	.	.	.	.	.	.	.	.	.	.	.	.	.	.	.
16C/JJ)	.	.	.	.	.	.	.	.	16c/JJ)	.	.	.	.	.	.	.	.	.	.	.	.	.	.	.	.	.	.	.
(16BB-/LL	.	.	8.F\	et	.	.	.	.	(16B-/LL	.	8.d/L	.	8.f/L	.	.	.	8.BB-/L	.	.	8.dL 8.F\	.	8.b-L 8.B-/	.	8.ddL 8.f/	.	8.ff\L	.	.
16AA/)	.	.	.	.	.	.	.	.	16A/)	.	.	.	.	.	.	.	.	.	.	.	.	.	.	.	.	.	.	.
16BB-'/	.	.	.	.	.	.	.	.	16B-'/	.	.	.	.	.	.	.	.	.	.	.	.	.	.	.	.	.	.	.
16BB-'/JJ	.	.	16F\	fla-	.	.	.	.	16B-'/JJ	.	16d/Jk	.	16f/Jk	.	.	.	16BB-/Jk	.	.	16dJk 16F\	.	16b-Jk 16B-/	.	16ddJk 16f/	.	16ff\Jk	.	.
!!LO:PB:g=original
=39	=39	=39	=39	=39	=39	=39	=39	=39	=39	=39	=39	=39	=39	=39	=39	=39	=39	=39	=39	=39	=39	=39	=39	=39	=39	=39	=39	=39
8BB-/L	.	1ryy	4.G-X\	-gel-	1ryy	1ryy	1ryy	1ryy	8B-/L	.	(16e-/LL	.	8g-X/L	.	1ryy	1ryy	1BB-	.	1ryy	1e- 1G-X	.	1b- 1B-	.	1ee- 1g-X	.	1gg-X	.	1ryy
.	.	.	.	.	.	.	.	.	.	.	16d/	.	.	.	.	.	.	.	.	.	.	.	.	.	.	.	.	.
8BB-/	.	.	.	.	.	.	.	.	8B-/	.	16e-/	.	8g-/	.	.	.	.	.	.	.	.	.	.	.	.	.	.	.
.	.	.	.	.	.	.	.	.	.	.	16f/JJ)	.	.	.	.	.	.	.	.	.	.	.	.	.	.	.	.	.
8BB-/	.	.	.	.	.	.	.	.	8B-/	.	(16e-/LL	.	8g-/	.	.	.	.	.	.	.	.	.	.	.	.	.	.	.
.	.	.	.	.	.	.	.	.	.	.	16d/	.	.	.	.	.	.	.	.	.	.	.	.	.	.	.	.	.
8BB-/	.	.	8E-\	-lis	.	.	.	.	8B-/	.	16e-/	.	8g-/	.	.	.	.	.	.	.	.	.	.	.	.	.	.	.
.	.	.	.	.	.	.	.	.	.	.	16f/JJ)	.	.	.	.	.	.	.	.	.	.	.	.	.	.	.	.	.
8BB-/	.	.	4G-\	sub-	.	.	.	.	8B-/	.	(16e-/LL	.	8g-/	.	.	.	.	.	.	.	.	.	.	.	.	.	.	.
.	.	.	.	.	.	.	.	.	.	.	16d/	.	.	.	.	.	.	.	.	.	.	.	.	.	.	.	.	.
8BB-/	.	.	.	.	.	.	.	.	8B-/	.	16e-/	.	8g-/	.	.	.	.	.	.	.	.	.	.	.	.	.	.	.
.	.	.	.	.	.	.	.	.	.	.	16f/JJ)	.	.	.	.	.	.	.	.	.	.	.	.	.	.	.	.	.
8BB-/	.	.	4E-\	-di-	.	.	.	.	8B-/	.	(16e-/LL	.	8g-/	.	.	.	.	.	.	.	.	.	.	.	.	.	.	.
.	.	.	.	.	.	.	.	.	.	.	16d/)	.	.	.	.	.	.	.	.	.	.	.	.	.	.	.	.	.
8BB-/J	.	.	.	.	.	.	.	.	8B-/J	.	16e-'/	.	8g-/J	.	.	.	.	.	.	.	.	.	.	.	.	.	.	.
.	.	.	.	.	.	.	.	.	.	.	16e-'/JJ	.	.	.	.	.	.	.	.	.	.	.	.	.	.	.	.	.
=40	=40	=40	=40	=40	=40	=40	=40	=40	=40	=40	=40	=40	=40	=40	=40	=40	=40	=40	=40	=40	=40	=40	=40	=40	=40	=40	=40	=40
4BB-/	.	1ryy	4B-\	-tum	1ryy	1ryy	1ryy	1ryy	4B-/	.	4d/	.	4f/	.	1ryy	1ryy	4BB-/	.	1ryy	4d 4F/	.	4b- 4B-/	.	4dd 4f/	.	4ff\	.	1ryy
4r	.	.	4r	.	.	.	.	.	4d\	p	4f/	p	4b-\	p	.	.	4r	.	.	4r	.	4r	.	4r	.	4r	.	.
4E-\	p	.	4.G-X\	et	.	.	.	.	4r	.	4r	.	4r	.	.	.	2r	.	.	2r	.	2r	.	2r	.	2r	.	.
4r	.	.	.	.	.	.	.	.	4e-\	.	4g-X/	.	4cc-X\	.	.	.	.	.	.	.	.	.	.	.	.	.	.	.
.	.	.	8c-X\	fla-	.	.	.	.	.	.	.	.	.	.	.	.	.	.	.	.	.	.	.	.	.	.	.	.
=41	=41	=41	=41	=41	=41	=41	=41	=41	=41	=41	=41	=41	=41	=41	=41	=41	=41	=41	=41	=41	=41	=41	=41	=41	=41	=41	=41	=41
4F\	.	1ryy	4.B-\	-gel-	1ryy	1ryy	1ryy	1ryy	4r	.	4r	.	4r	.	1ryy	1ryy	1r	.	1ryy	1r	.	1r	.	1r	.	1r	.	1ryy
4r	.	.	.	.	.	.	.	.	4d\	.	4f/	.	4b-\	.	.	.	.	.	.	.	.	.	.	.	.	.	.	.
.	.	.	8D\	-lis	.	.	.	.	.	.	.	.	.	.	.	.	.	.	.	.	.	.	.	.	.	.	.	.
4FF/	.	.	(8G\L	sub-	.	.	.	.	4r	.	4r	.	4r	.	.	.	.	.	.	.	.	.	.	.	.	.	.	.
.	.	.	8F\J)	.	.	.	.	.	.	.	.	.	.	.	.	.	.	.	.	.	.	.	.	.	.	.	.	.
4r	.	.	(8E-/L	-di-	.	.	.	.	4c\	.	4e-/	.	4a\	.	.	.	.	.	.	.	.	.	.	.	.	.	.	.
.	.	.	8C/J)	.	.	.	.	.	.	.	.	.	.	.	.	.	.	.	.	.	.	.	.	.	.	.	.	.
=42	=42	=42	=42	=42	=42	=42	=42	=42	=42	=42	=42	=42	=42	=42	=42	=42	=42	=42	=42	=42	=42	=42	=42	=42	=42	=42	=42	=42
*	*	*	*	*	*	*	*	*	*	*	*	*	*	*	*	*	*	*	*	*	*	*^	*	*	*	*	*	*
4GG/	.	1ryy	4BB-/	-tum	1ryy	1ryy	1ryy	1ryy	4r	.	4r	.	4r	.	1ryy	1ryy	1r	.	1ryy	1r	.	2r	2rByy	.	1r;	.	1r;	.	1ryy
4r	.	.	4r	.	.	.	.	.	4B-/	.	4d/	.	4b-\	.	.	.	.	.	.	.	.	.	.	.	.	.	.	.	.
4E-\	.	.	4.G\	et	.	.	.	.	4r	.	4r	.	4r	.	.	.	.	.	.	.	.	2ee-/	2cc\	p	.	.	.	.	.
4r	.	.	.	.	.	.	.	.	4c\	.	4e-/	.	4g/	.	.	.	.	.	.	.	.	.	.	.	.	.	.	.	.
.	.	.	8E-\	fla-	.	.	.	.	.	.	.	.	.	.	.	.	.	.	.	.	.	.	.	.	.	.	.	.	.
!!LO:LB:g=original
=43	=43	=43	=43	=43	=43	=43	=43	=43	=43	=43	=43	=43	=43	=43	=43	=43	=43	=43	=43	=43	=43	=43	=43	=43	=43	=43	=43	=43	=43
4F\	.	1ryy	4.D/	-gel-	1ryy	1ryy	1ryy	1ryy	4r	.	4r	.	4r	.	1ryy	1ryy	1r;	.	1ryy	1r;	.	2dd/	2b-\	.	1r;	.	1r;	.	1ryy
4r	.	.	.	.	.	.	.	.	4B-/	.	4d/	.	4f/	.	.	.	.	.	.	.	.	.	.	.	.	.	.	.	.
.	.	.	8BB-/	-lis	.	.	.	.	.	.	.	.	.	.	.	.	.	.	.	.	.	.	.	.	.	.	.	.	.
4FF/	.	.	(4FF/	sub-	.	.	.	.	4r	.	4r	.	4r	.	.	.	.	.	.	.	.	2cc 2f;/	2rByy	.	.	.	.	.	.
4r;	.	.	8GG;/)	.	.	.	.	.	4c;/	.	4e-;/	.	4a;/	.	.	.	.	.	.	.	.	.	.	.	.	.	.	.	.
.	.	.	8AA/	-di-	.	.	.	.	.	.	.	.	.	.	.	.	.	.	.	.	.	.	.	.	.	.	.	.	.
*	*	*	*	*	*	*	*	*	*	*	*	*	*	*	*	*	*	*	*	*	*	*v	*v	*	*	*	*	*	*
=44	=44	=44	=44	=44	=44	=44	=44	=44	=44	=44	=44	=44	=44	=44	=44	=44	=44	=44	=44	=44	=44	=44	=44	=44	=44	=44	=44	=44
4BB-/	.	1ryy	4BB-/	-tum.	1ryy	1ryy	1ryy	1ryy	4B-/	.	4d/	.	4b-\	.	1ryy	1ryy	1r	.	1ryy	4r	.	4b- 4d/	.	4r	.	4r	.	1ryy
8r	.	.	4r	.	.	.	.	.	8r	.	8r	.	8r	.	.	.	.	.	.	8r	.	4r	.	8r	.	8r	.	.
32r	.	.	.	.	.	.	.	.	32r	.	32r	.	32r	.	.	.	.	.	.	32r	.	.	.	32r	.	32r	.	.
!	!	!	!	!	!	!	!	!	!LO:TX:b:i:t=Col b.	!	!	!	!	!	!	!	!	!	!	!	!	!	!	!	!	!	!	!
(32B-\LLL	f	.	.	.	.	.	.	.	(32b-\LLL	.	(32b-/LLL	.	(32b-/LLL	.	.	.	.	.	.	(32f\LLL	f	.	.	(32b-/LLL	.	(32bb-\LLL	f	.
!	!	!	!	!	!	!	!	!	!	!	!LO:TX:b:i:t=Uniſ	!	!	!	!	!	!	!	!	!	!	!	!	!	!	!	!	!
32A\	.	.	.	.	.	.	.	.	32a\	f	32a/	f	32a/	f	.	.	.	.	.	32e-\	.	.	.	32a/	.	32aa\	.	.
32G\JJJ	.	.	.	.	.	.	.	.	32g\JJJ	.	32g/JJJ	.	32g/JJJ	.	.	.	.	.	.	32d\JJJ	.	.	.	32g/JJJ	.	32gg\JJJ	.	.
8F\L)	.	.	2r	.	.	.	.	.	8f\L)	.	8f/L)	.	8f/L)	.	.	.	.	.	.	8c\L)	.	2r	.	8f/L)	.	8ff\L)	.	.
32r	.	.	.	.	.	.	.	.	32r	.	32r	.	32r	.	.	.	.	.	.	32r	.	.	.	32r	.	32r	.	.
(32G\LL	.	.	.	.	.	.	.	.	(32g\LL	.	(32g/LL	.	(32g/LL	.	.	.	.	.	.	(32d\LL	.	.	.	(32g/LL	.	(32gg\LL	.	.
32F\	.	.	.	.	.	.	.	.	32f\	.	32f/	.	32f/	.	.	.	.	.	.	32c\	.	.	.	32f/	.	32ff\	.	.
32E-\JJJ	.	.	.	.	.	.	.	.	32e-\JJJ	.	32e-/JJJ	.	32e-/JJJ	.	.	.	.	.	.	32B-\JJJ	.	.	.	32e-/JJJ	.	32ee-\JJJ	.	.
8D\L)	.	.	.	.	.	.	.	.	8d\L)	.	8d/L)	.	8d/L)	.	.	.	.	.	.	8A\L)	.	.	.	8d/L)	.	8dd\L)	.	.
32r	.	.	.	.	.	.	.	.	32r	.	32r	.	32r	.	.	.	.	.	.	32r	.	.	.	32r	.	32r	.	.
(32E-\LL	.	.	.	.	.	.	.	.	32e-\LL	.	(32e-/LL	.	(32e-/LL	.	.	.	.	.	.	(32B-\LL	.	.	.	(32e-/LL	.	(32ee-\LL	.	.
32D\	.	.	.	.	.	.	.	.	32d\	.	32d/	.	32d/	.	.	.	.	.	.	32A\	.	.	.	32d/	.	32dd\	.	.
32C\JJJ	.	.	.	.	.	.	.	.	32c\JJJ	.	32c/JJJ	.	32c/JJJ	.	.	.	.	.	.	32G\JJJ	.	.	.	32c/JJJ	.	32cc\JJJ	.	.
=45	=45	=45	=45	=45	=45	=45	=45	=45	=45	=45	=45	=45	=45	=45	=45	=45	=45	=45	=45	=45	=45	=45	=45	=45	=45	=45	=45	=45
*	*	*	*	*	*	*	*	*	*	*	*	*	*	*	*	*	*	*	*	*	*	*^	*	*	*	*	*	*
4BB-/)	.	1ryy	1r	.	1ryy	1ryy	1ryy	1ryy	4B-/	.	4B-/)	.	4B-/)	.	1ryy	1ryy	4r	.	1ryy	4F/)	.	4rcc	4rByy	.	4B-/)	.	4b-\)	.	1ryy
4BB-/	f	.	.	.	.	.	.	.	4f 4B-'/	f	4dd 4f/	.	4bb- 4b-\	.	.	.	4BB-/	f	.	4f\	.	4dd/	4b-\	f	4dd 4f/	.	4bb-\	.	.
2r	.	.	.	.	.	.	.	.	2r	.	2r	.	2r	.	.	.	2r	.	.	2r	.	2rcc	2rByy	.	2r	.	2r	.	.
*	*	*	*	*	*	*	*	*	*	*	*	*	*	*	*	*	*	*	*	*	*	*v	*v	*	*	*	*	*	*
==	==	==	==	==	==	==	==	==	==	==	==	==	==	==	==	==	==	==	==	==	==	==	==	==	==	==	==	==
*-	*-	*-	*-	*-	*-	*-	*-	*-	*-	*-	*-	*-	*-	*-	*-	*-	*-	*-	*-	*-	*-	*-	*-	*-	*-	*-	*-	*-
!!title: @{OTL};
!!!RDF**kern: > = above
!!!RDF**kern: < = below
!!!RDF**dynam: > = "dim", fontstyle= "bold-italic"
!!!RDF**dynam: < = "cresc", fontstyle= "bold-italic"
!!!RDF**kern: | = vertical stroke
!!!RDF**kern: N = linked
!!!RDF**kern: i = editorial accidental
!!!EED: Wojciech Jakubiak-Danek
!!!EST: 2021-08-10
!!!URL-scan: http://repozytorium.nifc.pl/skany/pl-wtm-nut--r1564
!!!ONB-nifc: UWAGA: części Stabat Mater: 1. Andante, 2. Andantino, 3. Aria (Adagio), 4. Adagio, 5. Aria per il Basso, 6. Adagio, 7. Larghetto, 8. Aria per il Tenore, 9. Duetino (per il Soprano e Alto con Choro), 10. Arietta per il Alto, 11. Andantino (w źródle jako No. 10 ½), 12. Finale (w źródle jako No. 11)
!!!ENC: Mateusz Solarz
!!!END: 2021-08-02
